;FLAVOR:RepRap
;TIME:7529
;Filament used: 14.6126m
;Layer height: 0.25
;Generated with Cura_SteamEngine 3.3.1
T0
M190 S50
M104 S225
M109 S225
M82 ;absolute extrusion mode
G90; Absolute Mode
G1 Z15.0 F6000 ;Move the platform down 15mm
G92 E0
G1 F200 E3
G92 E0
M83 ;relative extrusion mode
G1 F7200 E-12
;LAYER_COUNT:127
;LAYER:0
M106 S102
G0 F2700 X175.245 Y144.357 Z0.25
;TYPE:SKIRT
G1 F7200 E12
G1 F900 X177.924 Y141.141 E0.54381
G1 X178.297 Y140.735 E0.07163
G1 X180.892 Y138.177 E0.47341
G1 X181.344 Y137.777 E0.07842
G1 X184.971 Y134.898 E0.60164
G1 X185.335 Y134.633 E0.0585
G1 X186.729 Y133.698 E0.21808
G1 X186.974 Y133.542 E0.03774
G1 X190.522 Y131.419 E0.53719
G1 X191.116 Y131.11 E0.08699
G1 X195.458 Y129.171 E0.61782
G1 X195.884 Y129.001 E0.05959
G1 X197.477 Y128.44 E0.21943
G1 X197.752 Y128.351 E0.03755
G1 X201.702 Y127.185 E0.53509
G1 X202.405 Y127.026 E0.09364
G1 X208.068 Y126.119 E0.74513
G1 X208.828 Y126.05 E0.09915
G1 X214.107 Y125.928 E0.68604
G1 X214.853 Y125.96 E0.09701
G1 X220.036 Y126.531 E0.67746
G1 X220.722 Y126.65 E0.09046
G1 X225.223 Y127.721 E0.60111
G1 X225.948 Y127.946 E0.09863
G1 X230.621 Y129.751 E0.65084
G1 X231.324 Y130.08 E0.10084
G1 X235.088 Y132.169 E0.55929
G1 X235.475 Y132.404 E0.05882
G1 X236.686 Y133.21 E0.189
G1 X237 Y133.435 E0.05019
G1 X240.239 Y135.928 E0.53103
G1 X240.834 Y136.457 E0.10344
G1 X243.784 Y139.48 E0.54877
G1 X244.115 Y139.851 E0.0646
G1 X245.1 Y141.057 E0.20231
G1 X245.329 Y141.358 E0.04914
G1 X247.575 Y144.521 E0.50401
G1 X247.996 Y145.215 E0.10546
G1 X249.893 Y148.921 E0.54091
G1 X250.107 Y149.39 E0.06698
G1 X250.738 Y150.963 E0.2202
G1 X250.867 Y151.32 E0.04932
G1 X252.039 Y154.93 E0.49312
G1 X252.233 Y155.714 E0.10493
G1 X252.944 Y159.848 E0.54499
G1 X253.006 Y160.344 E0.06494
G1 X253.138 Y161.963 E0.21104
G1 X253.156 Y162.341 E0.04917
G1 X253.211 Y166.277 E0.51142
G1 X253.168 Y167.062 E0.10214
G1 X252.63 Y171.315 E0.55696
G1 X252.558 Y171.747 E0.0569
G1 X252.276 Y173.112 E0.18109
G1 X252.18 Y173.503 E0.05231
G1 X251.009 Y177.65 E0.55986
G1 X250.751 Y178.372 E0.09961
G1 X248.738 Y182.982 E0.65355
G1 X248.387 Y183.658 E0.09896
G1 X245.737 Y188.007 E0.66166
G1 X245.33 Y188.588 E0.09216
G1 X241.418 Y193.491 E0.81493
G1 X238.136 Y197.816 E0.70539
G1 X235.16 Y202.237 E0.6924
G1 X232.429 Y206.834 E0.6947
G1 X229.973 Y211.561 E0.69209
G1 X227.757 Y216.486 E0.70166
G1 X226.778 Y218.93 E0.34206
G1 X225.883 Y221.37 E0.33766
G1 X224.241 Y226.506 E0.70055
G1 X222.889 Y231.729 E0.70095
G1 X222.339 Y234.298 E0.34133
G1 X221.869 Y236.857 E0.33803
G1 X221.116 Y242.201 E0.70116
G1 X220.673 Y247.503 E0.69125
G1 X220.527 Y252.792 E0.68742
G1 X220.517 Y285.483 E4.24729
G1 X220.477 Y286.152 E0.08707
G1 X220.357 Y286.812 E0.08715
G1 X220.16 Y287.453 E0.08712
G1 X219.888 Y288.066 E0.08713
G1 X219.545 Y288.642 E0.0871
G1 X219.136 Y289.173 E0.08708
G1 X218.666 Y289.652 E0.08719
G1 X218.143 Y290.071 E0.08707
G1 X217.574 Y290.425 E0.08707
G1 X216.967 Y290.709 E0.08707
G1 X216.33 Y290.919 E0.08714
G1 X215.672 Y291.052 E0.08722
G1 X214.892 Y291.106 E0.10158
G1 X169.411 Y291.106 E5.909
G1 X168.742 Y291.066 E0.08707
G1 X168.082 Y290.947 E0.08713
G1 X167.441 Y290.75 E0.08712
G1 X166.828 Y290.478 E0.08713
G1 X166.252 Y290.135 E0.0871
G1 X165.72 Y289.726 E0.08718
G1 X165.241 Y289.257 E0.0871
G1 X164.822 Y288.734 E0.08707
G1 X164.467 Y288.165 E0.08713
G1 X164.183 Y287.557 E0.08719
G1 X163.973 Y286.92 E0.08714
G1 X163.841 Y286.263 E0.08706
G1 X163.786 Y285.481 E0.10185
G1 X163.788 Y203.491 E10.65234
G1 X163.828 Y202.822 E0.08707
G1 X163.91 Y202.325 E0.06544
G1 X164.928 Y197.521 E0.63801
G1 X165.76 Y192.23 E0.69587
G1 X166.286 Y186.936 E0.6912
G1 X166.517 Y181.548 E0.70066
G1 X166.527 Y170.191 E1.47553
G1 X166.537 Y169.867 E0.04211
G1 X166.836 Y164.769 E0.66348
G1 X166.942 Y163.963 E0.10562
G1 X167.948 Y159.079 E0.64786
G1 X168.165 Y158.307 E0.10419
G1 X169.9 Y153.493 E0.66483
G1 X170.202 Y152.805 E0.09762
G1 X172.186 Y148.99 E0.55867
G1 X172.367 Y148.667 E0.0481
G1 X173.148 Y147.38 E0.19559
G1 X173.322 Y147.111 E0.04162
G1 X174.932 Y144.77 E0.36913
G1 X175.245 Y144.357 E0.06733
G1 F7200 E-12
G0 F2700 X211.027 Y204.615
;TYPE:WALL-INNER
G1 F7200 E12
G1 F900 X213.777 Y204.615 E0.21437
G1 X213.777 Y284.365 E6.21679
G1 X170.527 Y284.365 E3.37149
G1 X170.527 Y204.615 E6.21679
G1 X173.277 Y204.615 E0.21437
G1 X173.277 Y169.519 E2.73585
G1 X173.557 Y165.252 E0.33334
G1 X174.526 Y160.535 E0.37538
G1 X176.167 Y155.948 E0.37977
G1 X178.458 Y151.56 E0.38588
G1 X180.515 Y148.549 E0.28426
G1 X182.839 Y145.737 E0.28438
G1 X185.601 Y142.999 E0.30317
G1 X189.627 Y139.822 E0.39979
G1 X194.033 Y137.174 E0.40072
G1 X198.739 Y135.1 E0.4009
G1 X203.668 Y133.633 E0.40089
G1 X208.705 Y132.808 E0.39788
G1 X213.787 Y132.637 E0.39638
G1 X218.758 Y133.122 E0.38935
G1 X223.575 Y134.256 E0.38577
G1 X228.13 Y136.014 E0.38061
G1 X232.328 Y138.359 E0.37484
G1 X236.094 Y141.245 E0.36986
G1 X239.363 Y144.618 E0.36616
G1 X242.074 Y148.419 E0.36394
G1 X244.173 Y152.567 E0.36239
G1 X245.619 Y156.982 E0.36215
G1 X246.392 Y161.601 E0.36507
G1 X246.472 Y166.317 E0.36768
G1 X245.855 Y171.058 E0.37269
G1 X244.557 Y175.711 E0.37657
G1 X242.593 Y180.211 E0.38275
G1 X239.998 Y184.472 E0.38891
G1 X237.746 Y187.352 E0.28499
G1 X235.213 Y190.044 E0.28814
G1 X234.912 Y190.331 E0.03242
G1 X230.957 Y193.602 E0.40009
G1 X226.625 Y196.348 E0.39982
G1 X221.957 Y198.538 E0.40194
G1 X217.064 Y200.12 E0.40087
G1 X211.832 Y201.105 E0.41502
G1 X211.027 Y201.472 E0.06897
G1 X211.027 Y204.615 E0.24501
G0 F2700 X211.777 Y203.865
;TYPE:WALL-OUTER
G1 F900 X214.527 Y203.865 E0.21437
G1 X214.527 Y285.115 E6.33372
G1 X169.777 Y285.115 E3.48842
G1 X169.777 Y203.865 E6.33372
G1 X172.527 Y203.865 E0.21437
G1 X172.527 Y169.5 E2.67887
G1 X172.813 Y165.146 E0.34014
G1 X173.801 Y160.335 E0.38286
G1 X175.479 Y155.646 E0.38822
G1 X177.812 Y151.176 E0.39306
G1 X179.917 Y148.095 E0.29088
G1 X182.286 Y145.229 E0.28986
G1 X185.104 Y142.435 E0.30934
G1 X189.197 Y139.206 E0.4064
G1 X193.684 Y136.509 E0.4081
G1 X198.485 Y134.393 E0.40899
G1 X203.497 Y132.901 E0.40765
G1 X208.636 Y132.059 E0.40594
G1 X213.804 Y131.886 E0.40309
G1 X218.884 Y132.381 E0.39788
G1 X223.799 Y133.538 E0.39361
G1 X228.45 Y135.333 E0.38863
G1 X232.737 Y137.728 E0.3828
G1 X236.598 Y140.686 E0.37915
G1 X239.942 Y144.138 E0.37465
G1 X242.716 Y148.026 E0.37232
G1 X244.868 Y152.28 E0.37163
G1 X246.35 Y156.804 E0.3711
G1 X247.141 Y161.531 E0.37361
G1 X247.223 Y166.36 E0.37649
G1 X246.593 Y171.204 E0.38079
G1 X245.265 Y175.962 E0.38508
G1 X243.258 Y180.562 E0.39123
G1 X240.617 Y184.898 E0.39577
G1 X238.318 Y187.839 E0.291
G1 X235.747 Y190.571 E0.29244
G1 X235.407 Y190.895 E0.03661
G1 X231.403 Y194.207 E0.40507
G1 X226.98 Y197.01 E0.40819
G1 X222.231 Y199.238 E0.40892
G1 X217.253 Y200.848 E0.40784
G1 X212.06 Y201.825 E0.41191
G1 X211.777 Y201.954 E0.02424
G1 X211.777 Y203.865 E0.14897
G0 F2700 X211.977 Y203.865
G0 X213.037 Y205.355
;TYPE:SKIN
G1 F900 X213.037 Y283.625 E6.10142
G1 X171.267 Y283.625 E3.25612
G1 X171.267 Y205.355 E6.10142
G1 X174.017 Y205.355 E0.21437
G1 X174.017 Y169.538 E2.79206
G1 X174.291 Y165.353 E0.32693
G1 X175.24 Y160.737 E0.36736
G1 X176.846 Y156.246 E0.3718
G1 X179.094 Y151.942 E0.37852
G1 X181.109 Y148.992 E0.27849
G1 X183.389 Y146.233 E0.27901
G1 X186.091 Y143.554 E0.29661
G1 X190.049 Y140.431 E0.39302
G1 X194.374 Y137.832 E0.39334
G1 X198.995 Y135.796 E0.39364
G1 X203.833 Y134.356 E0.39349
G1 X208.773 Y133.546 E0.39023
G1 X213.771 Y133.379 E0.38983
G1 X218.634 Y133.853 E0.38088
G1 X223.351 Y134.964 E0.37777
G1 X227.817 Y136.687 E0.37315
G1 X231.918 Y138.977 E0.36615
G1 X235.604 Y141.803 E0.36207
G1 X238.793 Y145.092 E0.35712
G1 X241.436 Y148.799 E0.3549
G1 X243.489 Y152.855 E0.35437
G1 X244.898 Y157.158 E0.35296
G1 X245.652 Y161.669 E0.35653
G1 X245.732 Y166.276 E0.35919
G1 X245.128 Y170.91 E0.36429
G1 X243.859 Y175.459 E0.36815
G1 X241.933 Y179.873 E0.37542
G1 X239.389 Y184.05 E0.38125
G1 X237.182 Y186.871 E0.27921
G1 X234.686 Y189.525 E0.28401
G1 X234.423 Y189.775 E0.02829
G1 X230.52 Y193.003 E0.39483
G1 X226.263 Y195.702 E0.39292
G1 X221.69 Y197.847 E0.39375
G1 X216.889 Y199.399 E0.39332
G1 X211.607 Y200.395 E0.41901
G1 X210.287 Y200.996 E0.11306
G1 X210.287 Y205.355 E0.3398
G1 X213.037 Y205.355 E0.21437
G1 F7200 E-12
G0 F2700 X235.328 Y141.99
G1 F7200 E12
G1 F900 X235.898 Y142.56 E0.06284
G1 F7200 E-12
G0 F2700 X231.232 Y138.954
G1 F7200 E12
G1 F900 X240.977 Y148.7 E1.07437
G1 X241.083 Y148.806
G0 F2700 X242.175 Y150.958
G1 F900 X228.829 Y137.612 E1.4713
G1 X228.723 Y137.506
G0 F2700 X226.781 Y136.625
G1 F900 X243.229 Y153.073 E1.81327
G1 X243.335 Y153.179
G0 F2700 X243.745 Y154.649
G1 F900 X225.055 Y135.959 E2.06044
G1 X224.949 Y135.853
G0 F2700 X223.328 Y135.293
G1 F900 X244.261 Y156.226 E2.30771
G1 X244.367 Y156.332
G0 F2700 X244.667 Y157.693
G1 F900 X221.926 Y134.952 E2.50703
G1 X221.82 Y134.846
G0 F2700 X220.539 Y134.626
G1 F900 X244.88 Y158.966 E2.68337
G1 X244.986 Y159.072
G0 F2700 X245.093 Y160.24
G1 F900 X219.152 Y134.299 E2.85981
G1 X219.046 Y134.193
G0 F2700 X217.889 Y134.097
G1 F900 X245.305 Y161.513 E3.02242
G1 X245.411 Y161.619
G0 F2700 X245.352 Y162.621
G1 F900 X216.714 Y133.982 E3.15719
G1 X216.608 Y133.876
G0 F2700 X215.538 Y133.868
G1 F900 X245.371 Y163.7 E3.28882
G1 X245.477 Y163.806
G0 F2700 X245.39 Y164.78
G1 F900 X214.363 Y133.753 E3.4205
G1 X214.257 Y133.647
G0 F2700 X213.261 Y133.711
G1 F900 X245.409 Y165.86 E3.54414
G1 X245.515 Y165.966
G0 F2700 X245.339 Y166.85
G1 F900 X212.235 Y133.746 E3.64948
G1 X212.129 Y133.64
G0 F2700 X211.208 Y133.78
G1 F900 X245.216 Y167.788 E3.74914
G1 X245.322 Y167.894
G0 F2700 X245.094 Y168.726
G1 F900 X210.181 Y133.814 E3.84885
G1 X210.075 Y133.708
G0 F2700 X209.155 Y133.848
G1 F900 X244.971 Y169.664 E3.94846
G1 X245.077 Y169.77
G0 F2700 X244.849 Y170.602
G1 F900 X208.204 Y133.958 E4.03979
G1 X208.098 Y133.852
G0 F2700 X207.293 Y134.107
G1 F900 X244.646 Y171.46 E4.1179
G1 X244.752 Y171.566
G0 F2700 X244.415 Y172.29
G1 F900 X206.382 Y134.257 E4.19286
G1 X206.276 Y134.151
G0 F2700 X205.471 Y134.406
G1 F900 X244.184 Y173.12 E4.26789
G1 X244.29 Y173.226
G0 F2700 X243.953 Y173.949
G1 F900 X204.559 Y134.556 E4.34285
G1 X204.453 Y134.45
G0 F2700 X203.675 Y134.732
G1 F900 X243.722 Y174.779 E4.41489
G1 X243.828 Y174.885
G0 F2700 X243.462 Y175.58
G1 F900 X202.857 Y134.975 E4.47641
G1 X202.751 Y134.869
G0 F2700 X202.04 Y135.218
G1 F900 X243.14 Y176.318 E4.53098
G1 X243.246 Y176.424
G0 F2700 X242.818 Y177.057
G1 F900 X201.222 Y135.461 E4.58566
G1 X201.116 Y135.355
G0 F2700 X200.405 Y135.705
G1 F900 X242.495 Y177.795 E4.64012
G1 X242.601 Y177.901
G0 F2700 X242.173 Y178.533
G1 F900 X199.588 Y135.949 E4.69464
G1 X199.482 Y135.843
G0 F2700 X198.804 Y136.225
G1 F900 X241.851 Y179.272 E4.74562
G1 X241.957 Y179.378
G0 F2700 X241.498 Y179.98
G1 F900 X198.067 Y136.549 E4.78796
G1 X197.961 Y136.443
G0 F2700 X197.331 Y136.873
G1 F900 X241.097 Y180.64 E4.82494
G1 X241.203 Y180.746
G0 F2700 X240.696 Y181.299
G1 F900 X196.594 Y137.197 E4.86193
G1 X196.488 Y137.091
G0 F2700 X195.858 Y137.522
G1 F900 X240.294 Y181.958 E4.89875
G1 X240.4 Y182.064
G0 F2700 X239.893 Y182.617
G1 F900 X195.121 Y137.846 E4.93574
G1 X195.015 Y137.74
G0 F2700 X194.398 Y138.183
G1 F900 X239.491 Y183.276 E4.97118
G1 X239.597 Y183.382
G0 F2700 X239.083 Y183.929
G1 F900 X193.736 Y138.582 E4.99918
G1 X193.63 Y138.476
G0 F2700 X193.074 Y138.98
G1 F900 X238.618 Y184.524 E5.0209
G1 X238.724 Y184.63
G0 F2700 X238.152 Y185.119
G1 F900 X192.411 Y139.378 E5.04262
G1 X192.305 Y139.272
G0 F2700 X191.748 Y139.776
G1 F900 X237.686 Y185.714 E5.06433
G1 X237.792 Y185.82
G0 F2700 X237.221 Y186.309
G1 F900 X191.087 Y140.175 E5.08594
G1 X190.981 Y140.069
G0 F2700 X190.424 Y140.573
G1 F900 X236.736 Y186.885 E5.10557
G1 X236.842 Y186.991
G0 F2700 X236.222 Y187.432
G1 F900 X189.81 Y141.02 E5.11659
G1 X189.704 Y140.914
G0 F2700 X189.218 Y141.488
G1 F900 X235.708 Y187.978 E5.12519
G1 X235.814 Y188.084
G0 F2700 X235.194 Y188.525
G1 F900 X188.624 Y141.955 E5.13401
G1 X188.518 Y141.849
G0 F2700 X188.031 Y142.423
G1 F900 X234.68 Y189.071 E5.14266
G1 X234.786 Y189.177
G0 F2700 X234.143 Y189.595
G1 F900 X187.439 Y142.891 E5.14878
G1 X187.333 Y142.785
G0 F2700 X186.845 Y143.358
G1 F900 X233.563 Y190.075 E5.15027
G1 X233.669 Y190.181
G0 F2700 X232.982 Y190.556
G1 F900 X186.257 Y143.831 E5.1511
G1 X186.151 Y143.725
G0 F2700 X185.725 Y144.359
G1 F900 X232.401 Y191.036 E5.14575
G1 X232.507 Y191.142
G0 F2700 X231.821 Y191.516
G1 F900 X185.192 Y144.887 E5.14051
G1 X185.086 Y144.781
G0 F2700 X184.66 Y145.415
G1 F900 X231.24 Y191.996 E5.13517
G1 X231.346 Y192.102
G0 F2700 X230.66 Y192.476
G1 F900 X184.127 Y145.944 E5.12987
G1 X184.021 Y145.838
G0 F2700 X183.596 Y146.473
G1 F900 X230.05 Y192.927 E5.12122
G1 X230.156 Y193.033
G0 F2700 X229.4 Y193.337
G1 F900 X183.117 Y147.054 E5.10237
G1 X183.011 Y146.948
G0 F2700 X182.637 Y147.635
G1 F900 X228.751 Y193.749 E5.08374
G1 X228.857 Y193.855
G0 F2700 X228.102 Y194.16
G1 F900 X182.157 Y148.215 E5.06511
G1 X182.051 Y148.109
G0 F2700 X181.677 Y148.797
G1 F900 X227.452 Y194.572 E5.04636
G1 X227.558 Y194.678
G0 F2700 X226.803 Y194.983
G1 F900 X181.214 Y149.394 E5.02586
G1 X181.108 Y149.288
G0 F2700 X180.784 Y150.025
G1 F900 X226.154 Y195.395 E5.00172
G1 X226.26 Y195.501
G0 F2700 X225.437 Y195.739
G1 F900 X180.353 Y150.655 E4.97019
G1 X180.247 Y150.549
G0 F2700 X179.923 Y151.285
G1 F900 X224.715 Y196.077 E4.938
G1 X224.821 Y196.183
G0 F2700 X223.993 Y196.416
G1 F900 X179.492 Y151.915 E4.90592
G1 X179.386 Y151.809
G0 F2700 X179.108 Y152.591
G1 F900 X223.271 Y196.755 E4.86871
G1 X223.377 Y196.861
G0 F2700 X222.549 Y197.093
G1 F900 X178.744 Y153.288 E4.82919
G1 X178.638 Y153.182
G0 F2700 X178.38 Y153.985
G1 F900 X221.827 Y197.432 E4.78972
G1 X221.933 Y197.538
G0 F2700 X221.054 Y197.719
G1 F900 X178.016 Y154.681 E4.74463
G1 X177.91 Y154.575
G0 F2700 X177.652 Y155.378
G1 F900 X220.253 Y197.979 E4.69645
G1 X220.359 Y198.085
G0 F2700 X219.451 Y198.238
G1 F900 X177.288 Y156.075 E4.64817
G1 X177.182 Y155.969
G0 F2700 X176.973 Y156.82
G1 F900 X218.65 Y198.497 E4.59459
G1 X218.756 Y198.603
G0 F2700 X217.848 Y198.756
G1 F900 X176.693 Y157.602 E4.53699
G1 X176.587 Y157.496
G0 F2700 X176.414 Y158.383
G1 F900 X217.047 Y199.015 E4.47944
G1 X217.153 Y199.121
G0 F2700 X216.18 Y199.21
G1 F900 X176.135 Y159.164 E4.41473
G1 X176.029 Y159.058
G0 F2700 X175.856 Y159.946
G1 F900 X215.288 Y199.378 E4.34709
G1 X215.394 Y199.484
G0 F2700 X214.396 Y199.546
G1 F900 X175.576 Y160.727 E4.27957
G1 X175.47 Y160.621
G0 F2700 X175.383 Y161.595
G1 F900 X213.504 Y199.715 E4.20251
G1 X213.61 Y199.821
G0 F2700 X212.612 Y199.884
G1 F900 X175.202 Y162.474 E4.12418
G1 X175.096 Y162.368
G0 F2700 X175.021 Y163.354
G1 F900 X211.719 Y200.052 E4.04569
G1 X211.825 Y200.158
G0 F2700 X210.953 Y200.346
G1 F900 X174.84 Y164.234 E3.98114
G1 X174.734 Y164.128
G0 F2700 X174.659 Y165.113
G1 F900 X210.224 Y200.678 E3.92079
G1 X210.33 Y200.784
G0 F2700 X209.971 Y201.485
G1 F900 X174.557 Y166.072 E3.90408
G1 X174.451 Y165.966
G0 F2700 X174.492 Y167.068
G1 F900 X209.971 Y202.546 E3.91125
G1 X210.077 Y202.652
G0 F2700 X209.971 Y203.607
G1 F900 X174.427 Y168.063 E3.91847
G1 X174.321 Y167.957
G0 F2700 X174.361 Y169.058
G1 F900 X209.971 Y204.667 E3.92569
G1 X210.077 Y204.773
G0 F2700 X210.973 Y205.67
G1 F900 X212.721 Y207.418 E0.1927
G1 X212.827 Y207.524
G0 F2700 X212.721 Y206.357
G1 F900 X212.034 Y205.67 E0.07574
G0 F2700 X212.721 Y208.479
G1 F900 X174.33 Y170.088 E4.23233
G1 X174.224 Y169.982
G0 F2700 X174.33 Y171.148
G1 F900 X212.721 Y209.539 E4.23233
G1 X212.827 Y209.645
G0 F2700 X212.721 Y210.6
G1 F900 X174.33 Y172.209 E4.23233
G1 X174.224 Y172.103
G0 F2700 X174.33 Y173.27
G1 F900 X212.721 Y211.661 E4.23233
G1 X212.827 Y211.767
G0 F2700 X212.721 Y212.721
G1 F900 X174.33 Y174.33 E4.23233
G1 X174.224 Y174.224
G0 F2700 X174.33 Y175.391
G1 F900 X212.721 Y213.782 E4.23233
G1 X212.827 Y213.888
G0 F2700 X212.721 Y214.843
G1 F900 X174.33 Y176.452 E4.23233
G1 X174.224 Y176.346
G0 F2700 X174.33 Y177.512
G1 F900 X212.721 Y215.903 E4.23233
G1 X212.827 Y216.009
G0 F2700 X212.721 Y216.964
G1 F900 X174.33 Y178.573 E4.23233
