; G-Code generated by Simplify3D(R) Version 4.0.1
; Jul 31, 2018 at 9:42:36 PM
; Settings Summary
;   processName,Process1
;   applyToModels,MirrorClip,MirrorClip(2),MirrorClip(3),MirrorClip(4)
;   profileName,M3D ProMega Talryyn PETG (modified)
;   profileVersion,2018-07-04 01:26:59
;   baseProfile,Default
;   printMaterial,MG PETG
;   printQuality,Medium
;   printExtruders,All Extruders
;   extruderName,Mixing Extruder,Left Extruder,Right Extruder
;   extruderToolheadNumber,0,1,2
;   extruderDiameter,0.5,0.5,0.5
;   extruderAutoWidth,0,0,0
;   extruderWidth,0.5,0.5,0.5
;   extrusionMultiplier,1,1,1
;   extruderUseRetract,1,1,1
;   extruderRetractionDistance,0.5,2,2
;   extruderExtraRestartDistance,0,0,0
;   extruderRetractionZLift,0.5,0.5,0.5
;   extruderRetractionSpeed,1800,1800,1800
;   extruderUseCoasting,0,1,1
;   extruderCoastingDistance,0.2,0.2,0.2
;   extruderUseWipe,0,1,1
;   extruderWipeDistance,5,2,2
;   primaryExtruder,1
;   layerHeight,0.25
;   topSolidLayers,10
;   bottomSolidLayers,10
;   perimeterOutlines,3
;   printPerimetersInsideOut,1
;   startPointOption,3
;   startPointOriginX,5000
;   startPointOriginY,5000
;   sequentialIslands,0
;   spiralVaseMode,0
;   firstLayerHeightPercentage,90
;   firstLayerWidthPercentage,105
;   firstLayerUnderspeed,0.25
;   useRaft,0
;   raftExtruder,0
;   raftTopLayers,3
;   raftBaseLayers,2
;   raftOffset,3
;   raftSeparationDistance,0.14
;   raftTopInfill,100
;   aboveRaftSpeedMultiplier,0.3
;   useSkirt,1
;   skirtExtruder,1
;   skirtLayers,1
;   skirtOutlines,2
;   skirtOffset,4
;   usePrimePillar,0
;   primePillarExtruder,1
;   primePillarWidth,12
;   primePillarLocation,7
;   primePillarSpeedMultiplier,1
;   useOozeShield,0
;   oozeShieldExtruder,999
;   oozeShieldOffset,2
;   oozeShieldOutlines,1
;   oozeShieldSidewallShape,1
;   oozeShieldSidewallAngle,30
;   oozeShieldSpeedMultiplier,1
;   infillExtruder,1
;   internalInfillPattern,Rectilinear
;   externalInfillPattern,Rectilinear
;   infillPercentage,0
;   outlineOverlapPercentage,40
;   infillExtrusionWidthPercentage,100
;   minInfillLength,3
;   infillLayerInterval,1
;   internalInfillAngles,45,-45
;   overlapInternalInfillAngles,0
;   externalInfillAngles,45,-45,0,90
;   generateSupport,0
;   supportExtruder,1
;   supportInfillPercentage,30
;   supportExtraInflation,0
;   supportBaseLayers,3
;   denseSupportExtruder,1
;   denseSupportLayers,0
;   denseSupportInfillPercentage,70
;   supportLayerInterval,1
;   supportHorizontalPartOffset,0.75
;   supportUpperSeparationLayers,1
;   supportLowerSeparationLayers,1
;   supportType,0
;   supportGridSpacing,4
;   maxOverhangAngle,45
;   supportAngles,0,35
;   temperatureName,Extruder 1,Extruder 2,Extruder 3,Heated Bed
;   temperatureNumber,0,1,2,0
;   temperatureSetpointCount,2,1,1,1
;   temperatureSetpointLayers,1,3,1,1,1
;   temperatureSetpointTemperatures,245,235,235,235,70
;   temperatureStabilizeAtStartup,1,1,1,1
;   temperatureHeatedBed,0,0,0,1
;   temperatureRelayBetweenLayers,0,0,0,0
;   temperatureRelayBetweenLoops,0,0,0,0
;   fanLayers,1,4
;   fanSpeeds,0,70
;   blipFanToFullPower,0
;   adjustSpeedForCooling,0
;   minSpeedLayerTime,30
;   minCoolingSpeedSlowdown,20
;   increaseFanForCooling,0
;   minFanLayerTime,45
;   maxCoolingFanSpeed,100
;   increaseFanForBridging,0
;   bridgingFanSpeed,100
;   use5D,1
;   relativeEdistances,0
;   allowEaxisZeroing,1
;   independentExtruderAxes,0
;   includeM10123,0
;   stickySupport,1
;   applyToolheadOffsets,0
;   gcodeXoffset,0
;   gcodeYoffset,0
;   gcodeZoffset,0
;   overrideMachineDefinition,1
;   machineTypeOverride,0
;   strokeXoverride,383
;   strokeYoverride,388
;   strokeZoverride,377
;   originOffsetXoverride,0
;   originOffsetYoverride,0
;   originOffsetZoverride,0
;   homeXdirOverride,1
;   homeYdirOverride,1
;   homeZdirOverride,1
;   flipXoverride,1
;   flipYoverride,-1
;   flipZoverride,1
;   toolheadOffsets,0,0|0,0|0,0|0,0|0,0|0,0
;   overrideFirmwareConfiguration,1
;   firmwareTypeOverride,RepRap (Marlin/Repetier/Sprinter)
;   GPXconfigOverride,r2
;   baudRateOverride,115200
;   overridePrinterModels,0
;   printerModelsOverride
;   startingGcode,M98 Pprint_startgcode.g
;   layerChangeGcode,
;   retractionGcode,
;   toolChangeGcode,G91 ; use relative positions,G1 Z0.4 ; move the bed down by 0.5,T[new_tool],G1 Z-0.4 ; move the bed up by 0.5,G90 ; back to absolute positions
;   endingGcode,M98 Pprint_stopgcode.g
;   exportFileFormat,gcode
;   celebration,0
;   celebrationSong,Star Wars
;   postProcessing,
;   defaultSpeed,1800
;   outlineUnderspeed,1
;   solidInfillUnderspeed,0.4
;   supportUnderspeed,0.35
;   rapidXYspeed,3000
;   rapidZspeed,450
;   minBridgingArea,50
;   bridgingExtraInflation,0
;   bridgingExtrusionMultiplier,1
;   bridgingSpeedMultiplier,1
;   useFixedBridgingAngle,1
;   fixedBridgingAngle,135
;   applyBridgingToPerimeters,0
;   filamentDiameters,1.75|1.75|1.75|1.75|1.75|1.75
;   filamentPricesPerKg,46|46|46|46|46|46
;   filamentDensities,1.25|1.25|1.25|1.25|1.25|1.25
;   useMinPrintHeight,0
;   minPrintHeight,21.4
;   useMaxPrintHeight,0
;   maxPrintHeight,40
;   useDiaphragm,0
;   diaphragmLayerInterval,20
;   robustSlicing,1
;   mergeAllIntoSolid,0
;   onlyRetractWhenCrossingOutline,1
;   retractBetweenLayers,1
;   useRetractionMinTravel,0
;   retractionMinTravel,3
;   retractWhileWiping,0
;   onlyWipeOutlines,1
;   avoidCrossingOutline,0
;   maxMovementDetourFactor,400
;   toolChangeRetractionDistance,2
;   toolChangeExtraRestartDistance,0.75
;   toolChangeRetractionSpeed,600
;   externalThinWallType,1
;   internalThinWallType,2
;   thinWallAllowedOverlapPercentage,80
;   singleExtrusionMinLength,0.4
;   singleExtrusionMinPrintingWidthPercentage,20
;   singleExtrusionMaxPrintingWidthPercentage,200
;   singleExtrusionEndpointExtension,0.2
;   horizontalSizeCompensation,0
G90
M82
M106 S0
M140 S70
M190 S70
M104 S245 T0
M104 S235 T1
M104 S235 T2
M109 S245 T0
M109 S235 T1
M109 S235 T2
M98 Pprint_startgcode.g
G92 E0
G1 E-2.0000 F1800
G1 Z0.725 F450
; process Process1
; layer 1, Z = 0.225
G91 ; use relative positions
G1 Z0.4 ; move the bed down by 0.5
T1
G1 Z-0.4 ; move the bed up by 0.5
G90 ; back to absolute positions
; tool H0.250 W0.525
; skirt
G1 X168.747 Y172.220 F3000
G1 Z0.225 F450
G1 E0.0000 F540
G92 E0
G1 X169.309 Y171.775 E0.0391 F450
G1 X169.343 Y171.751 E0.0414
G1 X169.760 Y171.491 E0.0682
G1 X169.797 Y171.471 E0.0705
G1 X170.496 Y171.137 E0.1128
G1 X170.545 Y171.118 E0.1156
G1 X171.126 Y170.934 E0.1489
G1 X171.177 Y170.922 E0.1517
G1 X171.985 Y170.786 E0.1964
G1 X172.016 Y170.782 E0.1981
G1 X172.380 Y170.751 E0.2181
G1 X172.411 Y170.750 E0.2198
G1 X180.722 Y170.750 E0.6733
G1 X180.744 Y170.751 E0.6745
G1 X180.995 Y170.765 E0.6882
G1 X181.016 Y170.767 E0.6894
G1 X181.608 Y170.835 E0.7219
G1 X181.649 Y170.842 E0.7242
G1 X182.128 Y170.953 E0.7510
G1 X182.169 Y170.965 E0.7533
G1 X182.844 Y171.203 E0.7924
G1 X182.883 Y171.220 E0.7946
G1 X183.325 Y171.434 E0.8215
G1 X183.362 Y171.455 E0.8238
G1 X183.967 Y171.837 E0.8628
G1 X184.001 Y171.862 E0.8651
G1 X184.385 Y172.170 E0.8920
G1 X184.416 Y172.198 E0.8943
G1 X184.921 Y172.706 E0.9334
G1 X184.949 Y172.737 E0.9357
G1 X185.254 Y173.123 E0.9625
G1 X185.278 Y173.157 E0.9648
G1 X185.657 Y173.765 E1.0038
G1 X185.677 Y173.802 E1.0061
G1 X185.889 Y174.245 E1.0330
G1 X185.905 Y174.284 E1.0353
G1 X186.166 Y175.038 E1.0788
G1 X186.180 Y175.093 E1.0819
G1 X186.300 Y175.738 E1.1177
G1 X186.306 Y175.793 E1.1207
G1 X186.349 Y177.067 E1.1902
G1 X186.348 Y177.105 E1.1923
G1 X186.317 Y177.552 E1.2168
G1 X186.313 Y177.590 E1.2189
G1 X186.165 Y178.445 E1.2662
G1 X186.152 Y178.496 E1.2691
G1 X185.964 Y179.081 E1.3026
G1 X185.944 Y179.130 E1.3055
G1 X185.605 Y179.829 E1.3479
G1 X185.584 Y179.866 E1.3502
G1 X185.322 Y180.282 E1.3770
G1 X185.297 Y180.316 E1.3793
G1 X185.003 Y180.682 E1.4050
G1 X185.173 Y180.695 E1.4143
G1 X185.196 Y180.697 E1.4156
G1 X186.076 Y180.817 E1.4640
G1 X186.099 Y180.821 E1.4653
G1 X186.369 Y180.875 E1.4803
G1 X186.391 Y180.880 E1.4816
G1 X187.021 Y181.048 E1.5171
G1 X187.038 Y181.053 E1.5181
G1 X187.239 Y181.117 E1.5296
G1 X187.256 Y181.123 E1.5306
G1 X187.856 Y181.347 E1.5656
G1 X187.876 Y181.355 E1.5667
G1 X188.100 Y181.453 E1.5800
G1 X188.119 Y181.462 E1.5812
G1 X188.929 Y181.873 E1.6308
G1 X188.952 Y181.885 E1.6322
G1 X189.210 Y182.039 E1.6486
G1 X189.232 Y182.053 E1.6500
G1 X190.206 Y182.728 E1.7146
G1 X190.226 Y182.743 E1.7160
G1 X190.451 Y182.922 E1.7317
G1 X190.470 Y182.938 E1.7330
G1 X190.648 Y183.100 E1.7462
G1 X190.778 Y182.917 E1.7584
G1 X190.792 Y182.898 E1.7597
G1 X190.963 Y182.687 E1.7745
G1 X190.979 Y182.670 E1.7758
G1 X191.524 Y182.077 E1.8197
G1 X191.543 Y182.057 E1.8213
G1 X191.782 Y181.833 E1.8391
G1 X191.803 Y181.815 E1.8407
G1 X192.679 Y181.110 E1.9020
G1 X192.695 Y181.097 E1.9031
G1 X192.893 Y180.956 E1.9164
G1 X192.910 Y180.944 E1.9175
G1 X193.473 Y180.586 E1.9539
G1 X193.487 Y180.577 E1.9548
G1 X193.647 Y180.485 E1.9649
G1 X193.660 Y180.477 E1.9658
G1 X194.547 Y180.013 E2.0204
G1 X194.561 Y180.006 E2.0212
G1 X194.724 Y179.929 E2.0311
G1 X194.739 Y179.922 E2.0319
G1 X195.534 Y179.586 E2.0791
G1 X195.545 Y179.582 E2.0797
G1 X195.677 Y179.531 E2.0874
G1 X195.688 Y179.527 E2.0881
G1 X196.512 Y179.240 E2.1357
G1 X196.522 Y179.236 E2.1362
G1 X196.644 Y179.198 E2.1432
G1 X196.654 Y179.195 E2.1438
G1 X197.527 Y178.947 E2.1933
G1 X197.538 Y178.944 E2.1939
G1 X197.666 Y178.912 E2.2011
G1 X197.677 Y178.909 E2.2017
G1 X198.504 Y178.727 E2.2480
G1 X198.507 Y176.132 E2.3895
G1 X198.509 Y176.090 E2.3918
G1 X198.566 Y175.598 E2.4189
G1 X198.573 Y175.556 E2.4212
G1 X198.735 Y174.857 E2.4603
G1 X198.746 Y174.817 E2.4626
G1 X198.910 Y174.353 E2.4894
G1 X198.926 Y174.315 E2.4917
G1 X199.239 Y173.671 E2.5308
G1 X199.259 Y173.634 E2.5331
G1 X199.522 Y173.218 E2.5599
G1 X199.547 Y173.184 E2.5622
G1 X199.995 Y172.626 E2.6013
G1 X200.023 Y172.594 E2.6036
G1 X200.372 Y172.248 E2.6304
G1 X200.403 Y172.220 E2.6327
G1 X200.965 Y171.775 E2.6718
G1 X200.999 Y171.751 E2.6741
G1 X201.416 Y171.491 E2.7009
G1 X201.453 Y171.471 E2.7032
G1 X202.153 Y171.137 E2.7455
G1 X202.201 Y171.118 E2.7484
G1 X202.783 Y170.934 E2.7816
G1 X202.833 Y170.922 E2.7845
G1 X203.641 Y170.786 E2.8292
G1 X203.672 Y170.782 E2.8309
G1 X204.036 Y170.751 E2.8508
G1 X204.067 Y170.750 E2.8525
G1 X212.378 Y170.750 E3.3060
G1 X212.400 Y170.751 E3.3072
G1 X212.651 Y170.765 E3.3209
G1 X212.672 Y170.767 E3.3221
G1 X213.264 Y170.835 E3.3546
G1 X213.305 Y170.842 E3.3569
G1 X213.785 Y170.953 E3.3837
G1 X213.825 Y170.965 E3.3860
G1 X214.500 Y171.203 E3.4251
G1 X214.539 Y171.220 E3.4274
G1 X214.981 Y171.434 E3.4542
G1 X215.018 Y171.455 E3.4565
G1 X215.623 Y171.837 E3.4956
G1 X215.657 Y171.862 E3.4979
G1 X216.041 Y172.170 E3.5247
G1 X216.072 Y172.198 E3.5270
G1 X216.577 Y172.706 E3.5661
G1 X216.605 Y172.737 E3.5684
G1 X216.910 Y173.123 E3.5952
G1 X216.934 Y173.157 E3.5975
G1 X217.313 Y173.765 E3.6366
G1 X217.333 Y173.802 E3.6389
G1 X217.545 Y174.245 E3.6657
G1 X217.561 Y174.284 E3.6680
G1 X217.822 Y175.038 E3.7115
G1 X217.836 Y175.093 E3.7146
G1 X217.956 Y175.738 E3.7504
G1 X217.962 Y175.793 E3.7535
G1 X218.005 Y177.067 E3.8230
G1 X218.004 Y177.105 E3.8251
G1 X217.973 Y177.552 E3.8495
G1 X217.969 Y177.590 E3.8516
G1 X217.821 Y178.445 E3.8989
G1 X217.809 Y178.496 E3.9018
G1 X217.620 Y179.081 E3.9354
G1 X217.600 Y179.130 E3.9382
G1 X217.261 Y179.829 E3.9807
G1 X217.241 Y179.866 E3.9830
G1 X216.978 Y180.282 E4.0098
G1 X216.953 Y180.316 E4.0121
G1 X216.659 Y180.682 E4.0377
G1 X216.829 Y180.695 E4.0470
G1 X216.853 Y180.697 E4.0483
G1 X217.732 Y180.817 E4.0967
G1 X217.755 Y180.821 E4.0980
G1 X218.025 Y180.875 E4.1130
G1 X218.048 Y180.880 E4.1143
G1 X218.677 Y181.048 E4.1499
G1 X218.694 Y181.053 E4.1508
G1 X218.895 Y181.117 E4.1623
G1 X218.912 Y181.123 E4.1633
G1 X219.513 Y181.347 E4.1983
G1 X219.532 Y181.355 E4.1994
G1 X219.756 Y181.453 E4.2128
G1 X219.775 Y181.462 E4.2139
G1 X220.586 Y181.873 E4.2635
G1 X220.608 Y181.885 E4.2649
G1 X220.867 Y182.039 E4.2813
G1 X220.888 Y182.053 E4.2827
G1 X221.862 Y182.728 E4.3474
G1 X221.882 Y182.743 E4.3487
G1 X222.107 Y182.922 E4.3644
G1 X222.126 Y182.938 E4.3658
G1 X223.018 Y183.749 E4.4316
G1 X223.032 Y183.762 E4.4326
G1 X223.189 Y183.920 E4.4448
G1 X223.203 Y183.934 E4.4458
G1 X224.116 Y184.952 E4.5204
G1 X224.137 Y184.978 E4.5223
G1 X224.377 Y185.300 E4.5442
G1 X224.396 Y185.329 E4.5461
G1 X224.717 Y185.854 E4.5797
G1 X224.735 Y185.887 E4.5817
G1 X224.923 Y186.277 E4.6054
G1 X224.937 Y186.311 E4.6074
G1 X225.174 Y186.961 E4.6451
G1 X225.186 Y187.000 E4.6473
G1 X225.299 Y187.454 E4.6729
G1 X225.307 Y187.494 E4.6751
G1 X225.393 Y188.125 E4.7098
G1 X225.396 Y188.164 E4.7120
G1 X225.410 Y188.629 E4.7374
G1 X225.409 Y188.669 E4.7396
G1 X225.356 Y189.370 E4.7779
G1 X225.350 Y189.413 E4.7803
G1 X225.255 Y189.904 E4.8076
G1 X225.245 Y189.945 E4.8099
G1 X225.036 Y190.611 E4.8480
G1 X225.022 Y190.647 E4.8501
G1 X224.840 Y191.066 E4.8750
G1 X224.823 Y191.101 E4.8771
G1 X224.497 Y191.680 E4.9134
G1 X224.477 Y191.711 E4.9154
G1 X224.230 Y192.064 E4.9389
G1 X224.207 Y192.093 E4.9409
G1 X223.780 Y192.590 E4.9766
G1 X223.755 Y192.617 E4.9787
G1 X223.442 Y192.915 E5.0023
G1 X223.414 Y192.940 E5.0043
G1 X222.807 Y193.413 E5.0463
G1 X222.760 Y193.444 E5.0494
G1 X222.186 Y193.768 E5.0853
G1 X222.135 Y193.792 E5.0884
G1 X221.043 Y194.206 E5.1521
G1 X220.969 Y194.225 E5.1563
G1 X220.089 Y194.367 E5.2050
G1 X220.012 Y194.371 E5.2091
G1 X218.895 Y194.322 E5.2702
G1 X218.842 Y194.316 E5.2731
G1 X218.226 Y194.199 E5.3073
G1 X218.174 Y194.185 E5.3102
G1 X217.422 Y193.928 E5.3536
G1 X217.378 Y193.909 E5.3562
G1 X216.876 Y193.662 E5.3868
G1 X216.834 Y193.638 E5.3894
G1 X216.004 Y193.087 E5.4437
G1 X215.972 Y193.063 E5.4459
G1 X215.779 Y192.903 E5.4596
G1 X215.733 Y192.923 E5.4623
G1 X216.041 Y193.170 E5.4839
G1 X216.072 Y193.198 E5.4862
G1 X216.577 Y193.706 E5.5252
G1 X216.605 Y193.737 E5.5275
G1 X216.910 Y194.123 E5.5544
G1 X216.934 Y194.157 E5.5567
G1 X217.313 Y194.765 E5.5957
G1 X217.333 Y194.802 E5.5980
G1 X217.545 Y195.246 E5.6249
G1 X217.561 Y195.285 E5.6272
G1 X217.822 Y196.039 E5.6707
G1 X217.836 Y196.093 E5.6738
G1 X217.956 Y196.738 E5.7095
G1 X217.962 Y196.793 E5.7126
G1 X218.005 Y198.066 E5.7821
G1 X218.004 Y198.105 E5.7842
G1 X217.973 Y198.552 E5.8087
G1 X217.969 Y198.590 E5.8108
G1 X217.811 Y199.505 E5.8614
G1 X217.795 Y199.566 E5.8649
G1 X217.549 Y200.263 E5.9052
G1 X217.523 Y200.320 E5.9086
G1 X217.031 Y201.205 E5.9639
G1 X217.002 Y201.249 E5.9667
G1 X216.673 Y201.683 E5.9965
G1 X216.829 Y201.695 E6.0050
G1 X216.853 Y201.697 E6.0063
G1 X217.732 Y201.817 E6.0548
G1 X217.755 Y201.821 E6.0560
G1 X218.025 Y201.875 E6.0711
G1 X218.048 Y201.880 E6.0723
G1 X218.677 Y202.048 E6.1079
G1 X218.694 Y202.053 E6.1089
G1 X218.895 Y202.117 E6.1204
G1 X218.912 Y202.123 E6.1213
G1 X219.513 Y202.347 E6.1563
G1 X219.532 Y202.355 E6.1575
G1 X219.756 Y202.453 E6.1708
G1 X219.775 Y202.462 E6.1719
G1 X220.586 Y202.873 E6.2215
G1 X220.608 Y202.885 E6.2229
G1 X220.867 Y203.039 E6.2394
G1 X220.888 Y203.053 E6.2408
G1 X221.862 Y203.728 E6.3054
G1 X221.882 Y203.743 E6.3068
G1 X222.107 Y203.922 E6.3225
G1 X222.126 Y203.938 E6.3238
G1 X223.018 Y204.749 E6.3896
G1 X223.032 Y204.762 E6.3906
G1 X223.189 Y204.920 E6.4028
G1 X223.203 Y204.934 E6.4039
G1 X224.116 Y205.952 E6.4785
G1 X224.137 Y205.978 E6.4803
G1 X224.377 Y206.300 E6.5022
G1 X224.396 Y206.328 E6.5041
G1 X224.717 Y206.854 E6.5377
G1 X224.734 Y206.887 E6.5397
G1 X224.923 Y207.277 E6.5634
G1 X224.937 Y207.311 E6.5654
G1 X225.174 Y207.961 E6.6032
G1 X225.186 Y208.000 E6.6054
G1 X225.299 Y208.454 E6.6309
G1 X225.307 Y208.494 E6.6331
G1 X225.393 Y209.125 E6.6679
G1 X225.396 Y209.164 E6.6700
G1 X225.410 Y209.629 E6.6954
G1 X225.409 Y209.669 E6.6976
G1 X225.356 Y210.370 E6.7360
G1 X225.350 Y210.413 E6.7383
G1 X225.255 Y210.904 E6.7656
G1 X225.245 Y210.945 E6.7679
G1 X225.036 Y211.611 E6.8060
G1 X225.022 Y211.647 E6.8081
G1 X224.840 Y212.066 E6.8330
G1 X224.823 Y212.101 E6.8352
G1 X224.497 Y212.680 E6.8714
G1 X224.477 Y212.711 E6.8734
G1 X224.230 Y213.064 E6.8969
G1 X224.207 Y213.093 E6.8990
