;FLAVOR:RepRap
;TIME:4387
;Filament used: 9.62391m
;Layer height: 0.3
;Generated with Cura_SteamEngine 3.4.1
T0
M190 S75
M104 S240
M109 S240
M82 ;absolute extrusion mode
G90; Absolute Mode
M98 Pprint_startgcode.g
M83 ;relative extrusion mode
G1 F3000 E-1.5
;LAYER_COUNT:138
;LAYER:0
M107
G0 F3600 X181.976 Y183.201 Z0.3
;TYPE:SKIRT
G1 F3000 E1.5
G1 F1200 X182.287 Y182.941 E0.04171
G1 X182.644 Y182.748 E0.04176
G1 X183.032 Y182.628 E0.04179
G1 X183.445 Y182.586 E0.04272
G1 X193.885 Y182.586 E1.07426
G1 X194.289 Y182.626 E0.04177
G1 X194.677 Y182.744 E0.04173
G1 X195.034 Y182.936 E0.04171
G1 X195.348 Y183.194 E0.04182
G1 X195.504 Y183.371 E0.02428
G1 X196.898 Y185.137 E0.23151
G1 X220.43 Y185.138 E2.42141
G1 X220.436 Y185.074 E0.00661
G1 X220.555 Y184.686 E0.04176
G1 X220.838 Y184.204 E0.05751
G1 X221.495 Y183.371 E0.10917
G1 X221.777 Y183.079 E0.04177
G1 X222.11 Y182.847 E0.04176
G1 X222.482 Y182.686 E0.04171
G1 X222.878 Y182.6 E0.0417
G1 X223.115 Y182.586 E0.02443
G1 X233.555 Y182.586 E1.07426
G1 X233.959 Y182.626 E0.04177
G1 X234.347 Y182.744 E0.04173
G1 X234.704 Y182.936 E0.04171
G1 X235.018 Y183.194 E0.04182
G1 X235.274 Y183.508 E0.04169
G1 X235.468 Y183.876 E0.04281
G1 X240.646 Y196.689 E1.42203
G1 X240.76 Y197.078 E0.04171
G1 X240.796 Y197.483 E0.04184
G1 X240.752 Y197.886 E0.04171
G1 X240.63 Y198.273 E0.04175
G1 X240.435 Y198.628 E0.04168
G1 X240.173 Y198.939 E0.04184
G1 X239.856 Y199.192 E0.04173
G1 X239.506 Y199.375 E0.04064
G1 X230.757 Y202.91 E0.97097
G1 X230.896 Y203.256 E0.03837
G1 X239.646 Y199.721 E0.97106
G1 X240.036 Y199.607 E0.04181
G1 X240.44 Y199.571 E0.04174
G1 X240.843 Y199.615 E0.04171
G1 X241.23 Y199.737 E0.04175
G1 X241.586 Y199.933 E0.04182
G1 X241.896 Y200.194 E0.0417
G1 X242.149 Y200.511 E0.04173
G1 X242.332 Y200.861 E0.04064
G1 X252.115 Y225.074 E2.68716
G1 X252.229 Y225.464 E0.04181
G1 X252.265 Y225.868 E0.04174
G1 X252.221 Y226.271 E0.04171
G1 X252.099 Y226.658 E0.04175
G1 X251.903 Y227.014 E0.04182
G1 X251.642 Y227.324 E0.0417
G1 X251.388 Y227.535 E0.03398
G1 X242.247 Y233.96 E1.1497
G1 X241.894 Y234.159 E0.0417
G1 X241.508 Y234.286 E0.04181
G1 X241.106 Y234.335 E0.04167
G1 X240.701 Y234.303 E0.0418
G1 X240.31 Y234.194 E0.04177
G1 X239.949 Y234.01 E0.04169
G1 X239.603 Y233.731 E0.04574
G1 X224.972 Y219.112 E2.12824
G1 X192.027 Y219.112 E3.38999
G1 X177.396 Y233.73 E2.12816
G1 X177.082 Y233.988 E0.04182
G1 X176.724 Y234.178 E0.0417
G1 X176.336 Y234.295 E0.0417
G1 X175.932 Y234.334 E0.04176
G1 X175.528 Y234.293 E0.04178
G1 X175.14 Y234.173 E0.04179
G1 X174.755 Y233.961 E0.04522
G1 X165.607 Y227.555 E1.14916
G1 X165.299 Y227.291 E0.04174
G1 X165.049 Y226.971 E0.04178
G1 X164.866 Y226.609 E0.04174
G1 X164.757 Y226.218 E0.04177
G1 X164.728 Y225.813 E0.04178
G1 X164.778 Y225.411 E0.04168
G1 X164.877 Y225.092 E0.03437
G1 X181.532 Y183.876 E4.57424
G1 X181.721 Y183.517 E0.04175
G1 X181.976 Y183.201 E0.04178
G0 F3600 X182.668 Y183.685
G1 F1200 X182.936 Y183.52 E0.03238
G1 X183.236 Y183.429 E0.03226
G1 X183.445 Y183.411 E0.02159
G1 X193.885 Y183.411 E1.07426
G1 X194.197 Y183.451 E0.03237
G1 X194.488 Y183.568 E0.03227
G1 X194.741 Y183.754 E0.03231
G1 X194.857 Y183.882 E0.01777
G1 X196.498 Y185.962 E0.27262
G1 X221.1 Y185.963 E2.53151
G1 X221.342 Y185.994 E0.0251
G1 X221.276 Y185.85 E0.0163
G1 X221.221 Y185.541 E0.0323
G1 X221.246 Y185.228 E0.03231
G1 X221.349 Y184.931 E0.03235
G1 X221.486 Y184.715 E0.02632
G1 X222.143 Y183.882 E0.10917
G1 X222.367 Y183.662 E0.03231
G1 X222.639 Y183.506 E0.03226
G1 X222.942 Y183.423 E0.03233
G1 X223.115 Y183.411 E0.01784
G1 X233.555 Y183.411 E1.07426
G1 X233.867 Y183.451 E0.03237
G1 X234.158 Y183.568 E0.03227
G1 X234.411 Y183.754 E0.03231
G1 X234.608 Y183.998 E0.03227
G1 X234.703 Y184.185 E0.02158
G1 X239.881 Y196.998 E1.42203
G1 X239.961 Y197.302 E0.03235
G1 X239.961 Y197.616 E0.03231
G1 X239.883 Y197.92 E0.03229
G1 X239.731 Y198.195 E0.03233
G1 X239.514 Y198.422 E0.03231
G1 X239.197 Y198.61 E0.03792
G1 X229.683 Y202.454 E1.05586
G1 X230.44 Y204.33 E0.20816
G1 X239.955 Y200.486 E1.05596
G1 X240.259 Y200.406 E0.03235
G1 X240.573 Y200.406 E0.03231
G1 X240.877 Y200.484 E0.03229
G1 X241.152 Y200.636 E0.03233
G1 X241.379 Y200.853 E0.03231
G1 X241.567 Y201.17 E0.03792
G1 X251.35 Y225.383 E2.68716
G1 X251.43 Y225.687 E0.03235
G1 X251.43 Y226.001 E0.03231
G1 X251.352 Y226.305 E0.03229
G1 X251.2 Y226.58 E0.03233
G1 X250.914 Y226.86 E0.04118
G1 X241.773 Y233.285 E1.1497
G1 X241.495 Y233.431 E0.03231
G1 X241.189 Y233.503 E0.03235
G1 X240.875 Y233.496 E0.03232
G1 X240.573 Y233.41 E0.03231
G1 X240.186 Y233.148 E0.04809
G1 X225.313 Y218.287 E2.16345
G1 X191.687 Y218.287 E3.46007
G1 X176.813 Y233.147 E2.16345
G1 X176.564 Y233.339 E0.03235
G1 X176.276 Y233.462 E0.03222
G1 X175.965 Y233.509 E0.03236
G1 X175.653 Y233.476 E0.03228
G1 X175.228 Y233.285 E0.04795
G1 X166.08 Y226.879 E1.14916
G1 X165.848 Y226.668 E0.03227
G1 X165.676 Y226.405 E0.03234
G1 X165.576 Y226.107 E0.03234
G1 X165.554 Y225.794 E0.03229
G1 X165.642 Y225.401 E0.04144
G1 X182.297 Y184.185 E4.57424
G1 X182.451 Y183.911 E0.03234
G1 X182.668 Y183.685 E0.03224
G0 F3600 X183.165 Y184.346
G1 F1200 X183.321 Y184.255 E0.01858
G1 X183.445 Y184.236 E0.01291
G1 X193.885 Y184.236 E1.07426
G1 X194.061 Y184.276 E0.01857
G1 X194.209 Y184.393 E0.01941
G1 X196.024 Y186.693 E0.30148
G1 X196.069 Y186.787 E0.01072
G1 X221.1 Y186.788 E2.57565
G1 X221.276 Y186.828 E0.01857
G1 X221.419 Y186.939 E0.01863
G1 X221.5 Y187.1 E0.01855
G1 X221.512 Y187.222 E0.01261
G1 X221.479 Y187.868 E0.06656
G1 X221.758 Y188.723 E0.09254
G1 X221.938 Y188.96 E0.03062
G1 X222.213 Y189.176 E0.03598
G1 X222.466 Y189.254 E0.02724
G1 X222.693 Y189.243 E0.02339
G1 X222.929 Y189.141 E0.02646
G1 X223.163 Y188.941 E0.03167
G1 X223.539 Y188.199 E0.08559
G1 X223.604 Y187.276 E0.09521
G1 X223.331 Y186.417 E0.09275
G1 X223.151 Y186.175 E0.03103
G1 X222.874 Y185.955 E0.0364
G1 X222.701 Y185.894 E0.01888
G1 X222.459 Y185.895 E0.0249
G1 X222.283 Y185.856 E0.01855
G1 X222.14 Y185.746 E0.01856
G1 X222.058 Y185.585 E0.01859
G1 X222.052 Y185.404 E0.01863
G1 X222.134 Y185.226 E0.02017
G1 X222.791 Y184.393 E0.10917
G1 X222.931 Y184.279 E0.01858
G1 X223.115 Y184.236 E0.01944
G1 X233.555 Y184.236 E1.07426
G1 X233.731 Y184.276 E0.01857
G1 X233.874 Y184.387 E0.01863
G1 X233.938 Y184.494 E0.01283
G1 X239.116 Y197.307 E1.42203
G1 X239.145 Y197.486 E0.01866
G1 X239.096 Y197.659 E0.0185
G1 X238.977 Y197.795 E0.0186
G1 X238.888 Y197.845 E0.0105
G1 X228.609 Y201.998 E1.14076
G1 X229.984 Y205.404 E0.37795
G1 X240.264 Y201.251 E1.14086
G1 X240.443 Y201.222 E0.01866
G1 X240.616 Y201.271 E0.0185
G1 X240.752 Y201.39 E0.0186
G1 X240.802 Y201.479 E0.0105
G1 X250.585 Y225.692 E2.68716
G1 X250.614 Y225.871 E0.01866
G1 X250.565 Y226.044 E0.0185
G1 X250.439 Y226.185 E0.01946
G1 X241.298 Y232.61 E1.1497
G1 X241.132 Y232.679 E0.0185
G1 X240.951 Y232.67 E0.01865
G1 X240.769 Y232.564 E0.02167
G1 X225.655 Y217.462 E2.19852
G1 X191.345 Y217.462 E3.53045
G1 X176.23 Y232.563 E2.19852
G1 X176.077 Y232.66 E0.01864
G1 X175.898 Y232.682 E0.01856
G1 X175.701 Y232.609 E0.02162
G1 X166.553 Y226.203 E1.14916
G1 X166.431 Y226.07 E0.01857
G1 X166.378 Y225.897 E0.01862
G1 X166.407 Y225.71 E0.01947
G1 X183.062 Y184.494 E4.57424
G1 X183.165 Y184.346 E0.01855
G1 F3000 E-1.5
G0 F3600 X184.289 Y185.901
G0 X194.289 Y187.502
G0 X195.206 Y187.612
;TYPE:WALL-OUTER
G1 F3000 E1.5
G1 F1200 X220.667 Y187.613 E2.6199
G1 X220.648 Y187.98 E0.03781
G1 X221.017 Y189.112 E0.12251
G1 X221.343 Y189.54 E0.05536
G1 X221.824 Y189.92 E0.06308
G1 X222.36 Y190.085 E0.05771
G1 X222.884 Y190.059 E0.05399
G1 X223.371 Y189.848 E0.05461
G1 X223.824 Y189.459 E0.06144
G1 X224.35 Y188.424 E0.11946
G1 X224.439 Y187.175 E0.12885
G1 X224.077 Y186.038 E0.12278
G1 X223.745 Y185.593 E0.05713
G1 X223.28 Y185.225 E0.06102
G1 X223.207 Y185.199 E0.00797
G1 X223.315 Y185.061 E0.01803
G1 X233.278 Y185.061 E1.02518
G1 X238.197 Y197.234 E1.35099
G1 X227.535 Y201.542 E1.18328
G1 X229.528 Y206.478 E0.54775
G1 X240.191 Y202.17 E1.18337
G1 X249.698 Y225.698 E2.61117
G1 X241.106 Y231.735 E1.08052
G1 X225.997 Y216.637 E2.19787
G1 X191.003 Y216.637 E3.60083
G1 X175.892 Y231.735 E2.19801
G1 X167.295 Y225.716 E1.07988
G1 X183.722 Y185.061 E4.51193
G1 X193.686 Y185.061 E1.02528
G1 X195.271 Y187.069 E0.26323
G1 X195.206 Y187.612 E0.05627
G0 F3600 X195.456 Y187.612
G0 X195.456 Y188.519
G0 X195.456 Y188.536
G0 X202.974 Y188.167
G0 X214.027 Y188.168
G0 X216.897 Y189.675
G0 X219.658 Y192.102
G0 X221.822 Y195.262
G0 X223.087 Y198.797
G0 X223.441 Y202.6
G0 X222.827 Y206.309
G0 X221.302 Y209.766
G0 X217.949 Y214.557
G0 X218.723 Y214.049
G1 F1200 X218.962 Y214.937 E0.09463
G1 X219.612 Y215.587 E0.09459
G1 X220.5 Y215.826 E0.09463
G1 X221.388 Y215.587 E0.09463
G1 X222.038 Y214.937 E0.09459
G1 X222.277 Y214.049 E0.09463
G1 X222.038 Y213.161 E0.09463
G1 X221.388 Y212.511 E0.09459
G1 X220.5 Y212.272 E0.09463
G1 X219.612 Y212.511 E0.09463
G1 X218.962 Y213.161 E0.09459
G1 X218.723 Y214.049 E0.09463
G0 F3600 X218.788 Y214.29
G0 X217.911 Y214.524
G0 X217.966 Y214.599
G0 X212.363 Y216.5
G0 X204.637 Y216.5
G0 X198.291 Y213.954
G0 X198.072 Y213.141
G0 X197.408 Y212.477
G0 X196.5 Y212.232
G0 X195.683 Y212.452
G0 X193.832 Y213.809
G0 X194.723 Y214.049
G1 F1200 X194.962 Y214.937 E0.09463
G1 X195.612 Y215.587 E0.09459
G1 X196.5 Y215.826 E0.09463
G1 X197.388 Y215.587 E0.09463
G1 X198.038 Y214.937 E0.09459
G1 X198.277 Y214.049 E0.09463
G1 X198.038 Y213.161 E0.09463
G1 X197.388 Y212.511 E0.09459
G1 X196.5 Y212.272 E0.09463
G1 X195.612 Y212.511 E0.09463
G1 X194.962 Y213.161 E0.09459
G1 X194.723 Y214.049 E0.09463
G0 F3600 X194.788 Y214.29
G0 X193.911 Y214.524
G0 X193.895 Y214.528
G0 X192.727 Y202.673
G0 X193.07 Y198.72
G0 X194.409 Y194.935
G0 X196.612 Y191.668
G0 X199.63 Y188.993
G0 X200.675 Y188.459
G0 X202.983 Y188.205
G1 F1200 X200.124 Y189.708 E0.33236
G1 X197.267 Y192.241 E0.39289
G1 X195.186 Y195.326 E0.38291
G1 X193.921 Y198.904 E0.3905
G1 X193.596 Y202.639 E0.38578
G1 X194.221 Y206.359 E0.38815
G1 X195.758 Y209.803 E0.38807
G1 X198.127 Y212.764 E0.3902
G1 X201.187 Y215.038 E0.39229
G1 X204.644 Y216.461 E0.38468
G1 X212.356 Y216.461 E0.79355
G1 X215.871 Y215.015 E0.3911
G1 X218.879 Y212.761 E0.38678
G1 X221.268 Y209.746 E0.39583
G1 X222.789 Y206.298 E0.38778
G1 X223.402 Y202.599 E0.38581
G1 X223.048 Y198.805 E0.39209
G1 X221.787 Y195.28 E0.38523
G1 X219.629 Y192.128 E0.39307
G1 X216.875 Y189.707 E0.37731
G1 X214.018 Y188.206 E0.33208
G1 X202.983 Y188.205 E1.13549
G0 F3600 X202.762 Y188.321
G0 X200.675 Y188.459
G0 X194.248 Y188.462
G0 X194.316 Y187.339
G0 X194.412 Y187.312
;TYPE:WALL-INNER
G1 F1200 X194.277 Y188.436 E0.11649
G1 X200.772 Y188.436 E0.66833
G1 X199.652 Y189.025 E0.13021
G1 X196.642 Y191.694 E0.41395
G1 X194.444 Y194.952 E0.4044
G1 X193.109 Y198.728 E0.41211
G1 X192.766 Y202.672 E0.40736
G1 X193.426 Y206.599 E0.40975
G1 X195.049 Y210.235 E0.40972
G1 X196.085 Y211.531 E0.17073
G1 X195.185 Y211.773 E0.0959
G1 X194.224 Y212.734 E0.13985
G1 X193.87 Y214.049 E0.14013
G1 X194.224 Y215.364 E0.14013
G1 X194.673 Y215.813 E0.06534
G1 X190.662 Y215.813 E0.41273
G1 X175.799 Y230.664 E2.162
G1 X168.305 Y225.417 E0.94134
G1 X184.278 Y185.885 E4.38729
G1 X193.286 Y185.885 E0.92691
G1 X194.412 Y187.312 E0.18704
G0 F3600 X193.552 Y187.554
G1 F1200 X193.347 Y189.261 E0.17691
G1 X198.142 Y189.261 E0.4934
G1 X196.017 Y191.146 E0.29229
G1 X193.701 Y194.578 E0.42604
G1 X192.296 Y198.552 E0.43372
G1 X191.935 Y202.705 E0.42895
G1 X192.63 Y206.839 E0.43135
G1 X194.339 Y210.668 E0.43146
G1 X194.688 Y211.104 E0.05747
G1 X193.485 Y212.307 E0.17506
G1 X193.016 Y214.049 E0.18563
G1 X193.269 Y214.988 E0.10007
G1 X190.32 Y214.988 E0.30345
G1 X175.705 Y229.591 E2.12591
G1 X169.316 Y225.118 E0.80252
G1 X184.835 Y186.71 E4.26255
G1 X192.886 Y186.71 E0.82844
G1 X193.552 Y187.554 E0.11063
G0 F3600 X192.692 Y187.796
G1 F1200 X192.417 Y190.086 E0.23733
G1 X195.969 Y190.086 E0.3655
G1 X195.391 Y190.598 E0.07945
G1 X192.958 Y194.204 E0.44761
G1 X191.483 Y198.376 E0.45533
G1 X191.104 Y202.738 E0.45053
G1 X191.834 Y207.079 E0.45295
G1 X193.597 Y211.029 E0.4451
G1 X192.746 Y211.88 E0.12384
G1 X192.162 Y214.049 E0.23114
G1 X192.193 Y214.163 E0.01216
G1 X189.978 Y214.163 E0.22792
G1 X175.611 Y228.518 E2.08982
G1 X170.327 Y224.819 E0.6637
G1 X185.392 Y187.535 E4.13781
G1 X192.486 Y187.535 E0.72996
G1 X192.692 Y187.796 E0.03421
G0 F3600 X214.027 Y188.168
G0 X216.326 Y188.46
G0 X216.229 Y188.437
G1 F1200 X219.93 Y188.437 E0.38083
G1 X220.277 Y189.5 E0.11506
G1 X220.751 Y190.122 E0.08047
G1 X221.434 Y190.662 E0.08959
G1 X222.256 Y190.915 E0.0885
G1 X223.074 Y190.875 E0.08427
G1 X223.813 Y190.554 E0.08291
G1 X224.485 Y189.978 E0.09107
G1 X225.16 Y188.649 E0.15338
G1 X225.272 Y187.076 E0.16227
G1 X224.893 Y185.885 E0.12861
G1 X232.722 Y185.885 E0.80559
G1 X237.124 Y196.779 E1.20903
G1 X226.463 Y201.087 E1.18318
G1 X229.073 Y207.551 E0.71731
G1 X239.736 Y203.243 E1.18337
G1 X248.689 Y225.4 E2.45901
G1 X241.199 Y230.663 E0.94195
G1 X226.338 Y215.813 E2.16178
G1 X222.327 Y215.813 E0.41273
G1 X222.776 Y215.364 E0.06534
G1 X223.13 Y214.049 E0.14013
G1 X222.776 Y212.734 E0.14013
G1 X221.815 Y211.773 E0.13985
G1 X220.907 Y211.528 E0.09677
G1 X221.979 Y210.175 E0.17762
G1 X223.585 Y206.535 E0.40939
G1 X224.232 Y202.629 E0.4074
G1 X223.859 Y198.625 E0.41379
G1 X222.527 Y194.902 E0.40687
G1 X220.251 Y191.577 E0.41462
G1 X217.345 Y189.023 E0.3981
G1 X216.229 Y188.437 E0.1297
G0 F3600 X216.326 Y188.46
G0 X218.867 Y189.262
G1 F1200 X219.332 Y189.262 E0.04785
G1 X219.518 Y189.835 E0.06199
G1 X218.867 Y189.262 E0.08924
G0 F3600 X221.156 Y191.44
G1 F1200 X222.152 Y191.746 E0.10721
G1 X223.265 Y191.692 E0.11466
G1 X224.256 Y191.261 E0.1112
G1 X225.146 Y190.498 E0.12063
G1 X225.971 Y188.874 E0.18743
G1 X226.106 Y186.977 E0.19569
G1 X226.021 Y186.71 E0.02883
G1 X232.166 Y186.71 E0.63231
G1 X236.05 Y196.323 E1.06685
G1 X225.389 Y200.631 E1.18318
G1 X228.617 Y208.625 E0.8871
G1 X239.28 Y204.317 E1.18337
G1 X247.679 Y225.102 E2.30676
G1 X241.292 Y229.589 E0.80318
G1 X226.68 Y214.988 E2.12555
G1 X223.731 Y214.988 E0.30345
G1 X223.984 Y214.049 E0.10007
G1 X223.515 Y212.307 E0.18563
G1 X222.303 Y211.094 E0.17644
G1 X222.691 Y210.605 E0.06423
G1 X224.382 Y206.773 E0.43099
G1 X225.063 Y202.659 E0.42909
G1 X224.671 Y198.445 E0.43549
G1 X223.268 Y194.524 E0.42852
G1 X221.156 Y191.44 E0.38462
G0 F3600 X222.906 Y192.536
G1 F1200 X223.456 Y192.509 E0.05666
G1 X224.699 Y191.968 E0.13949
G1 X225.807 Y191.018 E0.15018
G1 X226.782 Y189.099 E0.22149
G1 X226.893 Y187.535 E0.16134
G1 X231.609 Y187.535 E0.48527
G1 X234.976 Y195.867 E0.92471
G1 X225.612 Y199.651 E1.03924
G1 X225.483 Y198.265 E0.14323
G1 X224.009 Y194.146 E0.45016
G1 X222.906 Y192.536 E0.20082
G0 F3600 X225.73 Y203.679
G1 F1200 X228.161 Y209.699 E0.66805
G1 X238.824 Y205.391 E1.18337
G1 X246.669 Y224.804 E2.15451
G1 X241.385 Y228.516 E0.66447
G1 X227.022 Y214.163 E2.08938
G1 X224.807 Y214.163 E0.22792
G1 X224.838 Y214.049 E0.01216
G1 X224.254 Y211.88 E0.23114
G1 X223.405 Y211.03 E0.12362
G1 X225.179 Y207.011 E0.45204
G1 X225.73 Y203.679 E0.34751
G0 F3600 X221.302 Y209.766
G0 X219.146 Y212.486
G0 X216.194 Y215.794
G0 X216.096 Y215.813
G1 F1200 X216.281 Y215.737 E0.02058
G1 X217.981 Y214.463 E0.2186
G1 X218.224 Y215.364 E0.09602
G1 X218.673 Y215.813 E0.06534
G1 X216.096 Y215.813 E0.26517
G0 F3600 X216.194 Y215.794
G0 X212.363 Y216.5
G0 X204.637 Y216.5
G0 X199.053 Y214.549
G0 X199.021 Y214.455
G1 F1200 X200.778 Y215.761 E0.22527
G1 X200.904 Y215.813 E0.01403
G1 X198.327 Y215.813 E0.26517
G1 X198.776 Y215.364 E0.06534
G1 X199.021 Y214.455 E0.09687
G0 F3600 X199.053 Y214.549
G0 X198.072 Y213.141
G0 X197.408 Y212.477
G0 X192.626 Y210.85
;TYPE:SKIN
G1 F1200 X192.017 Y211.459 E0.08862
G1 X191.508 Y213.349 E0.20141
G1 X189.641 Y213.349 E0.19211
G1 X175.52 Y227.46 E2.05417
G1 X171.325 Y224.523 E0.52694
G1 X185.942 Y188.349 E4.01465
G1 X191.806 Y188.349 E0.6034
G1 X191.5 Y190.9 E0.26438
G1 X194.206 Y190.9 E0.27844
G1 X192.225 Y193.835 E0.36436
G1 X190.681 Y198.202 E0.47662
G1 X190.284 Y202.771 E0.47191
G1 X191.048 Y207.316 E0.47424
G1 X192.626 Y210.85 E0.39825
G0 F3600 X185.501 Y208.995
