;FLAVOR:Marlin
;TIME:1757
;Filament used: 2.98149m
;Layer height: 0.25
;Generated with Cura_SteamEngine 3.3.1
M190 S50
M104 S225
M109 S225
M82 ;absolute extrusion mode
G1 Z15.0 F6000 ;Move the platform down 15mm
G92 E0
G1 F200 E10
G92 E0
G92 E0
G1 F7200 E-12
;LAYER_COUNT:24
;LAYER:0
M106 S102
G0 F2700 X91.148 Y61.193 Z0.25
;TYPE:SKIRT
G1 F7200 E0
G1 F900 X91.576 Y60.676 E0.0872
G1 X92.061 Y60.214 E0.17423
G1 X92.599 Y59.813 E0.2614
G1 X93.18 Y59.479 E0.34847
G1 X93.797 Y59.216 E0.43561
G1 X94.441 Y59.028 E0.52278
G1 X95.102 Y58.919 E0.60982
G1 X95.689 Y58.888 E0.68619
G1 X101.083 Y58.888 E1.38699
G1 X101.257 Y58.891 E1.4096
G1 X104.619 Y58.995 E1.84661
G1 X116.226 Y58.888 E3.35468
G1 X116.896 Y58.922 E3.44184
G1 X117.557 Y59.035 E3.52896
G1 X118.199 Y59.226 E3.61599
G1 X118.815 Y59.493 E3.70321
G1 X119.394 Y59.83 E3.79025
G1 X119.929 Y60.234 E3.87735
G1 X120.412 Y60.699 E3.96446
G1 X120.837 Y61.218 E4.05161
G1 X121.197 Y61.784 E4.13876
G1 X121.474 Y62.359 E4.22169
G1 X155.859 Y145.323 E15.88967
G1 X156.079 Y145.957 E15.97686
G1 X156.221 Y146.612 E16.06393
G1 X156.285 Y147.28 E16.15112
G1 X156.268 Y147.95 E16.23819
G1 X156.172 Y148.614 E16.32536
G1 X155.998 Y149.261 E16.41241
G1 X155.747 Y149.883 E16.49955
G1 X155.425 Y150.471 E16.58665
G1 X155.035 Y151.016 E16.67372
G1 X154.583 Y151.511 E16.76081
G1 X154.075 Y151.949 E16.84795
G1 X153.518 Y152.323 E16.93512
G1 X152.921 Y152.629 E17.02228
G1 X152.292 Y152.861 E17.10938
G1 X151.64 Y153.016 E17.19645
G1 X150.673 Y153.102 E17.32258
G1 X145.28 Y153.112 E18.02326
G1 X144.611 Y153.073 E18.11032
G1 X143.951 Y152.955 E18.19743
G1 X143.191 Y152.714 E18.30102
G1 X138.722 Y150.936 E18.92591
G1 X133.655 Y149.224 E19.62078
G1 X128.472 Y147.793 E20.31937
G1 X125.897 Y147.197 E20.66276
G1 X123.324 Y146.681 E21.00371
G1 X118.03 Y145.847 E21.7
G1 X112.719 Y145.316 E22.39346
G1 X107.365 Y145.085 E23.08971
G1 X102.046 Y145.157 E23.78083
G1 X96.719 Y145.531 E24.47463
G1 X91.425 Y146.204 E25.16797
G1 X86.13 Y147.186 E25.86764
G1 X83.605 Y147.764 E26.20418
G1 X81.017 Y148.436 E26.55157
G1 X75.876 Y150.005 E27.24992
G1 X70.842 Y151.86 E27.94694
G1 X68.842 Y152.686 E28.22807
G1 X68.208 Y152.904 E28.31518
G1 X67.553 Y153.046 E28.40225
G1 X66.694 Y153.112 E28.51418
G1 X61.312 Y153.112 E29.21343
G1 X60.643 Y153.072 E29.3005
G1 X59.983 Y152.953 E29.38763
G1 X59.342 Y152.756 E29.47476
G1 X58.729 Y152.484 E29.56189
G1 X58.153 Y152.141 E29.64899
G1 X57.621 Y151.732 E29.73617
G1 X57.142 Y151.263 E29.82327
G1 X56.723 Y150.74 E29.91033
G1 X56.368 Y150.171 E29.99747
G1 X56.084 Y149.563 E30.08465
G1 X55.874 Y148.926 E30.17179
G1 X55.742 Y148.269 E30.25886
G1 X55.688 Y147.601 E30.34593
G1 X55.715 Y146.931 E30.43305
G1 X55.821 Y146.269 E30.52015
G1 X56.115 Y145.334 E30.64749
G1 X90.492 Y62.36 E42.31628
G1 X90.785 Y61.757 E42.40338
G1 X91.148 Y61.193 E42.49052
G1 F7200 E30.49052
G0 F2700 X79.453 Y106.625
;TYPE:WALL-INNER
G1 F7200 E42.49052
G1 F900 X96.434 Y65.628 E45.94968
G1 X99.41 Y65.628 E46.18167
G1 X82.12 Y107.373 E49.70391
G1 X82.102 Y107.373 E49.70531
G1 X65.948 Y146.372 E52.9959
G1 X62.971 Y146.372 E53.22797
G1 X79.434 Y106.625 E56.58165
G1 X79.453 Y106.625 E56.58313
G0 F2700 X78.952 Y105.875
;TYPE:WALL-OUTER
G1 F900 X95.933 Y64.878 E60.04229
G1 X100.533 Y64.878 E60.40087
G1 X82.621 Y108.123 E64.0497
G1 X82.603 Y108.123 E64.0511
G1 X66.449 Y147.122 E67.34169
G1 X61.848 Y147.122 E67.70036
G1 X78.933 Y105.875 E71.18062
G1 X78.952 Y105.875 E71.1821
G0 F2700 X79.028 Y105.691
G0 X79.928 Y107.365
;TYPE:SKIN
G1 F900 X79.948 Y107.365 E71.18366
G1 X96.928 Y66.368 E74.64279
G1 X98.303 Y66.368 E74.74997
G1 X81.626 Y106.633 E78.14734
G1 X81.607 Y106.633 E78.14882
G1 X65.454 Y145.632 E81.43938
G1 X64.078 Y145.632 E81.54665
G1 X79.928 Y107.365 E84.77545
G1 F7200 E72.77545
G0 F2700 X64.594 Y145.205
G0 X64.649 Y145.26
G1 F7200 E84.77545
G1 F1588.2 X65.151 Y144.7 E84.80867
G0 F2700 X65.215 Y143.704
G1 F900 X65.708 Y144.197 E84.86302
G0 F2700 X66.019 Y143.447
G1 F900 X65.526 Y142.955 E84.91732
G0 F2700 X65.837 Y142.204
G1 F900 X66.329 Y142.696 E84.97156
G0 F2700 X66.639 Y141.946
G1 F900 X66.147 Y141.454 E85.02579
G0 F2700 X66.458 Y140.704
G1 F900 X66.95 Y141.197 E85.08009
G0 F2700 X67.261 Y140.446
G1 F900 X66.769 Y139.954 E85.13433
G0 F2700 X67.079 Y139.204
G1 F900 X67.571 Y139.696 E85.18857
G0 F2700 X67.882 Y138.947
G1 F900 X67.39 Y138.454 E85.24286
G0 F2700 X67.701 Y137.704
G1 F900 X68.193 Y138.196 E85.2971
G0 F2700 X68.503 Y137.446
G1 F900 X68.011 Y136.954 E85.35134
G0 F2700 X68.322 Y136.204
G1 F900 X68.814 Y136.696 E85.40558
G0 F2700 X69.125 Y135.946
G1 F900 X68.633 Y135.454 E85.45982
G0 F2700 X68.943 Y134.704
G1 F900 X69.435 Y135.196 E85.51406
G0 F2700 X69.746 Y134.446
G1 F900 X69.254 Y133.954 E85.5683
G0 F2700 X69.565 Y133.204
G1 F900 X70.057 Y133.696 E85.62254
G0 F2700 X70.367 Y132.946
G1 F900 X69.875 Y132.454 E85.67678
G0 F2700 X70.186 Y131.704
G1 F900 X70.678 Y132.196 E85.73102
G0 F2700 X70.988 Y131.446
G1 F900 X70.497 Y130.954 E85.7852
G0 F2700 X70.807 Y130.204
G1 F900 X71.299 Y130.696 E85.83944
G0 F2700 X71.61 Y129.946
G1 F900 X71.117 Y129.454 E85.89374
G0 F2700 X71.429 Y128.704
G1 F900 X71.92 Y129.196 E85.94792
G0 F2700 X72.231 Y128.446
G1 F900 X71.739 Y127.954 E86.00216
G0 F2700 X72.049 Y127.204
G1 F900 X72.542 Y127.696 E86.05645
G0 F2700 X72.852 Y126.946
G1 F900 X72.361 Y126.454 E86.11064
G0 F2700 X72.671 Y125.704
G1 F900 X73.163 Y126.196 E86.16488
G0 F2700 X73.474 Y125.446
G1 F900 X72.981 Y124.954 E86.21917
G0 F2700 X73.293 Y124.204
G1 F900 X73.784 Y124.696 E86.27336
G0 F2700 X74.094 Y123.945
G1 F900 X73.603 Y123.454 E86.32749
G0 F2700 X73.913 Y122.704
G1 F900 X74.406 Y123.196 E86.38178
G0 F2700 X74.716 Y122.446
G1 F900 X74.224 Y121.954 E86.43602
G0 F2700 X74.535 Y121.204
G1 F900 X75.026 Y121.695 E86.49015
G0 F2700 X75.337 Y120.946
G1 F900 X74.845 Y120.454 E86.54439
G0 F2700 X75.156 Y119.704
G1 F900 X75.648 Y120.196 E86.59863
G0 F2700 X75.958 Y119.445
G1 F900 X75.467 Y118.954 E86.65276
G0 F2700 X75.777 Y118.204
G1 F900 X76.269 Y118.695 E86.70694
G0 F2700 X76.58 Y117.946
G1 F900 X76.088 Y117.454 E86.76118
G0 F2700 X76.399 Y116.704
G1 F900 X76.89 Y117.195 E86.81531
G0 F2700 X77.201 Y116.445
G1 F900 X76.709 Y115.954 E86.8695
G0 F2700 X77.02 Y115.204
G1 F900 X77.512 Y115.696 E86.92374
G0 F2700 X77.822 Y114.945
G1 F900 X77.331 Y114.454 E86.97786
G0 F2700 X77.641 Y113.704
G1 F900 X78.133 Y114.195 E87.03205
G0 F2700 X78.443 Y113.445
G1 F900 X77.952 Y112.954 E87.08618
G0 F2700 X78.263 Y112.204
G1 F900 X78.754 Y112.695 E87.14031
G0 F2700 X79.065 Y111.945
G1 F900 X78.573 Y111.454 E87.19449
G0 F2700 X78.884 Y110.704
G1 F900 X79.375 Y111.195 E87.24862
G0 F2700 X79.686 Y110.445
G1 F900 X79.195 Y109.954 E87.30275
G0 F2700 X79.505 Y109.204
G1 F900 X79.997 Y109.695 E87.35693
G0 F2700 X80.307 Y108.945
G1 F900 X79.816 Y108.454 E87.41106
G0 F2700 X80.127 Y107.704
G1 F900 X80.618 Y108.195 E87.46519
G0 F2700 X80.929 Y107.445
G1 F900 X80.452 Y106.968 E87.51778
G0 F2700 X80.763 Y106.219
G1 F900 X81.239 Y106.695 E87.57025
G0 F2700 X81.564 Y105.959
G1 F900 X81.074 Y105.469 E87.62427
G0 F2700 X81.384 Y104.718
G1 F900 X81.875 Y105.209 E87.6784
G0 F2700 X82.185 Y104.459
G1 F900 X81.694 Y103.968 E87.73253
G0 F2700 X82.006 Y103.219
G1 F900 X82.496 Y103.709 E87.78655
G0 F2700 X82.806 Y102.958
G1 F900 X82.316 Y102.468 E87.84057
G0 F2700 X82.626 Y101.718
G1 F900 X83.117 Y102.209 E87.8947
G0 F2700 X83.427 Y101.459
G1 F900 X82.937 Y100.969 E87.94872
G0 F2700 X83.248 Y100.218
G1 F900 X83.738 Y100.708 E88.00274
G0 F2700 X84.049 Y99.959
G1 F900 X83.558 Y99.468 E88.05687
G0 F2700 X83.869 Y98.718
G1 F900 X84.359 Y99.209 E88.11094
G0 F2700 X84.67 Y98.458
G1 F900 X84.18 Y97.968 E88.16496
G0 F2700 X84.49 Y97.218
G1 F900 X84.981 Y97.709 E88.21909
G0 F2700 X85.291 Y96.959
G1 F900 X84.801 Y96.468 E88.27316
G0 F2700 X85.111 Y95.718
G1 F900 X85.602 Y96.208 E88.32724
G0 F2700 X85.913 Y95.459
G1 F900 X85.422 Y94.968 E88.38137
G0 F2700 X85.733 Y94.218
G1 F900 X86.223 Y94.709 E88.43544
G0 F2700 X86.534 Y93.958
G1 F900 X86.043 Y93.468 E88.48951
G0 F2700 X86.354 Y92.718
G1 F900 X86.845 Y93.209 E88.54364
G0 F2700 X87.155 Y92.459
G1 F900 X86.665 Y91.968 E88.59772
G0 F2700 X86.975 Y91.218
G1 F900 X87.466 Y91.708 E88.65179
G0 F2700 X87.776 Y90.958
G1 F900 X87.285 Y90.467 E88.70592
G0 F2700 X87.597 Y89.718
G1 F900 X88.087 Y90.209 E88.75999
G0 F2700 X88.398 Y89.458
G1 F900 X87.907 Y88.968 E88.81407
G0 F2700 X88.217 Y88.217
G1 F900 X88.708 Y88.708 E88.8682
G0 F2700 X89.019 Y87.959
G1 F900 X88.528 Y87.467 E88.92238
G0 F2700 X88.839 Y86.718
G1 F900 X89.33 Y87.208 E88.97646
G0 F2700 X89.64 Y86.458
G1 F900 X89.149 Y85.967 E89.03059
G0 F2700 X89.46 Y85.217
G1 F900 X89.951 Y85.709 E89.08477
G0 F2700 X90.262 Y84.958
G1 F900 X89.77 Y84.467 E89.13895
G0 F2700 X90.081 Y83.717
G1 F900 X90.572 Y84.208 E89.19308
G0 F2700 X90.883 Y83.459
G1 F900 X90.392 Y82.967 E89.24727
G0 F2700 X90.702 Y82.217
G1 F900 X91.194 Y82.708 E89.30145
G0 F2700 X91.504 Y81.958
G1 F900 X91.013 Y81.467 E89.35558
G0 F2700 X91.324 Y80.717
G1 F900 X91.814 Y81.208 E89.40966
G0 F2700 X92.126 Y80.458
G1 F900 X91.634 Y79.967 E89.46384
G0 F2700 X91.945 Y79.217
G1 F900 X92.436 Y79.708 E89.51797
G0 F2700 X92.746 Y78.958
G1 F900 X92.256 Y78.467 E89.57204
G0 F2700 X92.566 Y77.717
G1 F900 X93.058 Y78.208 E89.62623
G0 F2700 X93.368 Y77.458
G1 F900 X92.877 Y76.967 E89.68036
G0 F2700 X93.187 Y76.216
G1 F900 X93.678 Y76.708 E89.73454
G0 F2700 X93.99 Y75.958
G1 F900 X93.498 Y75.467 E89.78873
G0 F2700 X93.809 Y74.717
G1 F900 X94.3 Y75.208 E89.84286
G0 F2700 X94.61 Y74.458
G1 F900 X94.119 Y73.966 E89.89704
G0 F2700 X94.43 Y73.217
G1 F900 X94.922 Y73.708 E89.95122
G0 F2700 X95.232 Y72.958
G1 F900 X94.74 Y72.467 E90.00541
G0 F2700 X95.051 Y71.716
G1 F900 X95.542 Y72.208 E90.05959
G0 F2700 X95.853 Y71.458
G1 F900 X95.361 Y70.966 E90.11383
G0 F2700 X95.672 Y70.217
G1 F900 X96.164 Y70.708 E90.16802
G0 F2700 X96.474 Y69.958
G1 F900 X95.983 Y69.466 E90.2222
G0 F2700 X96.293 Y68.716
G1 F900 X96.785 Y69.208 E90.27644
G0 F2700 X97.096 Y68.458
G1 F900 X96.604 Y67.966 E90.33068
G0 F2700 X97.16 Y67.462
G1 F1271.2 X97.579 Y66.82 E90.37299
G1 F7200 E78.37299
G0 F2700 X97.442 Y66.682
G0 X129.451 Y106.374
;TYPE:WALL-INNER
G1 F7200 E90.37299
G1 F900 X129.433 Y106.374 E90.37439
G1 X112.556 Y65.628 E93.81237
G1 X115.534 Y65.628 E94.04452
G1 X132.103 Y105.629 E97.41965
G1 X132.12 Y105.629 E97.42097
G1 X148.996 Y146.372 E100.85871
G1 X146.018 Y146.372 E101.09085
G1 X129.451 Y106.374 E104.46571
G0 F2700 X128.95 Y107.124
;TYPE:WALL-OUTER
G1 F900 X128.932 Y107.124 E104.46711
G1 X111.433 Y64.878 E108.03167
G1 X116.035 Y64.878 E108.39041
G1 X132.604 Y104.879 E111.76555
G1 X132.621 Y104.879 E111.76687
G1 X150.119 Y147.122 E115.33119
G1 X145.517 Y147.122 E115.68993
G1 X128.95 Y107.124 E119.06479
G0 F2700 X128.932 Y107.124
G0 X128.863 Y106.956
G0 X129.927 Y105.634
;TYPE:SKIN
G1 F900 X113.663 Y66.368 E122.37789
G1 X115.04 Y66.368 E122.48523
G1 X131.608 Y106.369 E125.86033
G1 X131.626 Y106.369 E125.86174
G1 X147.889 Y145.632 E129.17459
G1 X146.512 Y145.632 E129.28193
G1 X129.946 Y105.634 E132.65676
G1 X129.927 Y105.634 E132.65824
G1 F7200 E120.65824
G0 F2700 X114.412 Y66.682
G1 F7200 E132.65824
G1 F900 X115.125 Y67.395 E132.73685
G0 F2700 X114.684 Y68.015
G1 F900 X115.875 Y69.205 E132.86809
G1 X115.981 Y69.311
G0 F2700 X115.434 Y69.826
G1 F900 X116.624 Y71.016 E132.99928
G1 X116.73 Y71.122
G0 F2700 X116.184 Y71.636
G1 F900 X117.374 Y72.827 E133.13052
G1 X117.48 Y72.933
G0 F2700 X116.934 Y73.447
G1 F900 X118.124 Y74.637 E133.26171
G1 X118.23 Y74.743
G0 F2700 X117.684 Y75.258
G1 F900 X118.873 Y76.447 E133.39279
G1 X118.979 Y76.553
G0 F2700 X118.434 Y77.068
G1 F900 X119.624 Y78.258 E133.52398
G1 X119.73 Y78.364
G0 F2700 X119.184 Y78.879
G1 F900 X120.373 Y80.068 E133.65506
G1 X120.479 Y80.174
G0 F2700 X119.933 Y80.689
G1 F900 X121.123 Y81.878 E133.78619
G1 X121.229 Y81.984
G0 F2700 X120.684 Y82.5
G1 F900 X121.873 Y83.689 E133.91727
G1 X121.979 Y83.795
G0 F2700 X121.434 Y84.311
G1 F900 X122.622 Y85.499 E134.04824
G1 X122.728 Y85.605
G0 F2700 X122.183 Y86.121
G1 F900 X123.372 Y87.31 E134.17932
G1 X123.478 Y87.416
G0 F2700 X122.934 Y87.932
G1 F900 X124.122 Y89.12 E134.31029
G1 X124.228 Y89.226
G0 F2700 X123.683 Y89.742
G1 F900 X124.872 Y90.931 E134.44136
G1 X124.978 Y91.037
G0 F2700 X124.433 Y91.553
G1 F900 X125.621 Y92.741 E134.57233
G1 X125.727 Y92.847
G0 F2700 X125.184 Y93.364
G1 F900 X126.372 Y94.552 E134.7033
G1 X126.478 Y94.658
G0 F2700 X125.933 Y95.174
G1 F900 X127.121 Y96.362 E134.83427
G1 X127.227 Y96.468
G0 F2700 X126.683 Y96.985
G1 F900 X127.871 Y98.172 E134.96518
G1 X127.977 Y98.278
G0 F2700 X127.433 Y98.795
G1 F900 X128.621 Y99.983 E135.09615
G1 X128.727 Y100.089
G0 F2700 X128.183 Y100.606
G1 F900 X129.37 Y101.793 E135.22701
G1 X129.476 Y101.899
G0 F2700 X128.933 Y102.417
G1 F900 X130.12 Y103.603 E135.35781
G1 X130.226 Y103.709
G0 F2700 X129.683 Y104.227
G1 F900 X130.87 Y105.414 E135.48867
G1 X130.976 Y105.52
G0 F2700 X130.468 Y106.073
G1 F900 X131.654 Y107.258 E135.61936
G1 X131.76 Y107.364
G0 F2700 X131.218 Y107.883
G1 F900 X132.404 Y109.069 E135.75011
G1 X132.51 Y109.175
G0 F2700 X131.968 Y109.694
G1 F900 X133.153 Y110.88 E135.88081
G1 X133.259 Y110.986
G0 F2700 X132.718 Y111.505
G1 F900 X133.904 Y112.69 E136.0115
G1 X134.01 Y112.796
G0 F2700 X133.467 Y113.315
G1 F900 X134.653 Y114.501 E136.14225
G1 X134.759 Y114.607
G0 F2700 X134.218 Y115.126
G1 F900 X135.403 Y116.311 E136.27288
G1 X135.509 Y116.417
G0 F2700 X134.967 Y116.936
G1 F900 X136.153 Y118.122 E136.40363
G1 X136.259 Y118.228
G0 F2700 X135.717 Y118.746
G1 F900 X136.903 Y119.933 E136.53443
G1 X137.009 Y120.039
G0 F2700 X136.467 Y120.557
G1 F900 X137.653 Y121.743 E136.66518
G1 X137.759 Y121.849
G0 F2700 X137.216 Y122.367
G1 F900 X138.403 Y123.554 E136.79604
G1 X138.509 Y123.66
G0 F2700 X137.966 Y124.177
G1 F900 X139.152 Y125.364 E136.92684
G1 X139.258 Y125.47
G0 F2700 X138.716 Y125.988
G1 F900 X139.903 Y127.175 E137.0577
G1 X140.009 Y127.281
G0 F2700 X139.466 Y127.798
G1 F900 X140.652 Y128.985 E137.18851
G1 X140.758 Y129.091
G0 F2700 X140.215 Y129.609
G1 F900 X141.402 Y130.796 E137.31936
G1 X141.508 Y130.902
G0 F2700 X140.965 Y131.419
G1 F900 X142.153 Y132.607 E137.45033
G1 X142.259 Y132.713
G0 F2700 X141.715 Y133.23
G1 F900 X142.902 Y134.417 E137.58119
G1 X143.008 Y134.523
G0 F2700 X142.465 Y135.04
G1 F900 X143.652 Y136.228 E137.7121
G1 X143.758 Y136.334
G0 F2700 X143.214 Y136.85
G1 F900 X144.402 Y138.038 E137.84307
G1 X144.508 Y138.144
G0 F2700 X143.964 Y138.661
G1 F900 X145.152 Y139.849 E137.97404
G1 X145.258 Y139.955
G0 F2700 X144.714 Y140.471
G1 F900 X145.902 Y141.659 E138.10501
G1 X146.008 Y141.765
G0 F2700 X145.463 Y142.281
G1 F900 X146.652 Y143.47 E138.23609
G1 X146.758 Y143.576
G0 F2700 X146.214 Y144.092
G1 F900 X147.402 Y145.28 E138.36706
G1 X147.508 Y145.386
G1 F7200 E126.36706
G0 F2700 X79.302 Y106.4
;TIME_ELAPSED:123.264884
;LAYER:1
M140 S50
G0 F5400 X79.302 Y106.4 Z0.5
;TYPE:WALL-INNER
G1 F7200 E138.36706
G1 F2400 X96.284 Y65.403 E141.1344
G1 X99.747 Y65.403 E141.35037
G1 X82.269 Y107.598 E144.19858
G1 X82.253 Y107.598 E144.19957
G1 X66.098 Y146.597 E146.83207
G1 X62.634 Y146.597 E147.04809
G1 X79.284 Y106.4 E149.76143
G1 X79.302 Y106.4 E149.76255
G0 F5400 X78.901 Y105.8
;TYPE:WALL-OUTER
G1 F2400 X95.883 Y64.803 E152.5299
G1 X100.645 Y64.803 E152.82687
G1 X82.67 Y108.198 E155.75608
G1 X82.654 Y108.198 E155.75708
G1 X66.499 Y147.197 E158.38957
G1 X61.736 Y147.197 E158.68661
G1 X78.883 Y105.8 E161.48094
G1 X78.901 Y105.8 E161.48206
G0 F5400 X78.977 Y105.616
G0 X79.678 Y106.99
;TYPE:SKIN
G1 F1200 X79.696 Y106.99 E161.48318
G1 X96.678 Y65.993 E164.25053
G1 X98.864 Y65.993 E164.38686
G1 X81.875 Y107.008 E167.15541
G1 X81.859 Y107.008 E167.15641
G1 X65.704 Y146.007 E169.7889
G1 X63.517 Y146.007 E169.92529
G1 X79.678 Y106.99 E172.55897
G1 F7200 E160.55897
G0 F5400 X64.668 Y145.766
G1 F7200 E172.55897
G1 F1200 X66.162 Y144.272 E172.69073
G1 X66.268 Y144.166
G0 F5400 X66.762 Y142.823
G1 F1200 X63.915 Y145.671 E172.94186
G1 X63.809 Y145.777
G0 F5400 X64.515 Y144.222
G1 F1200 X67.362 Y141.375 E173.19295
G1 X67.468 Y141.269
G0 F5400 X67.962 Y139.926
