;FLAVOR:RepRap
;TIME:1188
;Filament used: 1.81097m
;Layer height: 0.3
;Generated with Cura_SteamEngine 3.3.1
T0
M190 S70
M104 S240
M109 S240
M82 ;absolute extrusion mode
G90; Absolute Mode
G0 X0 Y0 Z0; Home
G1 Z15.0 F6000 ;Move the platform down 15mm
G92 E0
G1 F200 E3
G92 E0
M83 ;relative extrusion mode
G1 F1500 E-6.5
;LAYER_COUNT:170
;LAYER:0
M107
G0 F3600 X184.734 Y185.184 Z0.3
;TYPE:SKIRT
G1 F1500 E6.5
G1 F1800 X185.183 Y184.735 E0.04356
G1 X186.645 Y183.385 E0.13651
G1 X187.115 Y182.983 E0.04243
G1 X188.674 Y181.753 E0.13622
G1 X189.185 Y181.382 E0.04332
G1 X190.841 Y180.276 E0.13661
G1 X191.369 Y179.952 E0.0425
G1 X193.102 Y178.98 E0.1363
G1 X193.666 Y178.693 E0.04341
G1 X195.472 Y177.861 E0.1364
G1 X196.044 Y177.624 E0.04247
G1 X197.911 Y176.934 E0.13654
G1 X198.516 Y176.737 E0.04365
G1 X200.428 Y176.199 E0.13625
G1 X201.034 Y176.054 E0.04274
G1 X202.987 Y175.666 E0.13659
G1 X203.602 Y175.569 E0.04271
G1 X205.575 Y175.335 E0.13629
G1 X206.201 Y175.285 E0.04308
G1 X208.187 Y175.207 E0.13634
G1 X208.813 Y175.207 E0.04294
G1 X210.799 Y175.285 E0.13634
G1 X211.425 Y175.335 E0.04308
G1 X213.398 Y175.569 E0.13629
G1 X214.013 Y175.666 E0.04271
G1 X215.966 Y176.054 E0.13659
G1 X216.576 Y176.2 E0.04303
G1 X218.488 Y176.739 E0.13627
G1 X219.085 Y176.933 E0.04306
G1 X220.952 Y177.622 E0.13652
G1 X221.528 Y177.861 E0.04278
G1 X223.332 Y178.692 E0.13625
G1 X223.896 Y178.979 E0.04341
G1 X225.631 Y179.952 E0.13646
G1 X226.158 Y180.275 E0.0424
G1 X227.813 Y181.38 E0.13651
G1 X228.325 Y181.752 E0.04341
G1 X229.885 Y182.983 E0.13632
G1 X230.355 Y183.385 E0.04243
G1 X231.816 Y184.734 E0.13641
G1 X232.265 Y185.183 E0.04356
G1 X233.615 Y186.645 E0.13651
G1 X234.017 Y187.115 E0.04243
G1 X235.247 Y188.674 E0.13622
G1 X235.618 Y189.185 E0.04332
G1 X236.724 Y190.841 E0.13661
G1 X237.048 Y191.369 E0.0425
G1 X238.02 Y193.102 E0.1363
G1 X238.307 Y193.666 E0.04341
G1 X239.139 Y195.472 E0.1364
G1 X239.376 Y196.044 E0.04247
G1 X240.066 Y197.911 E0.13654
G1 X240.263 Y198.516 E0.04365
G1 X240.801 Y200.428 E0.13625
G1 X240.946 Y201.032 E0.04261
G1 X241.334 Y202.983 E0.13646
G1 X241.432 Y203.6 E0.04286
G1 X241.666 Y205.574 E0.13636
G1 X241.715 Y206.2 E0.04307
G1 X241.793 Y208.186 E0.13634
G1 X241.793 Y208.812 E0.04294
G1 X241.715 Y210.799 E0.13641
G1 X241.665 Y211.425 E0.04308
G1 X241.431 Y213.398 E0.13629
G1 X241.334 Y214.013 E0.04271
G1 X240.946 Y215.966 E0.13659
G1 X240.8 Y216.576 E0.04303
G1 X240.261 Y218.488 E0.13627
G1 X240.067 Y219.085 E0.04306
G1 X239.378 Y220.952 E0.13652
G1 X239.139 Y221.528 E0.04278
G1 X238.308 Y223.332 E0.13625
G1 X238.021 Y223.896 E0.04341
G1 X237.048 Y225.631 E0.13646
G1 X236.725 Y226.158 E0.0424
G1 X235.62 Y227.813 E0.13651
G1 X235.248 Y228.325 E0.04341
G1 X234.017 Y229.885 E0.13632
G1 X233.615 Y230.355 E0.04243
G1 X232.266 Y231.816 E0.13641
G1 X231.817 Y232.265 E0.04356
G1 X230.355 Y233.615 E0.13651
G1 X229.885 Y234.017 E0.04243
G1 X228.326 Y235.247 E0.13622
G1 X227.815 Y235.618 E0.04332
G1 X226.159 Y236.724 E0.13661
G1 X225.631 Y237.048 E0.0425
G1 X223.898 Y238.02 E0.1363
G1 X223.334 Y238.307 E0.04341
G1 X221.528 Y239.139 E0.1364
G1 X220.956 Y239.376 E0.04247
G1 X219.089 Y240.066 E0.13654
G1 X218.484 Y240.263 E0.04365
G1 X216.572 Y240.801 E0.13625
G1 X215.966 Y240.946 E0.04274
G1 X214.013 Y241.334 E0.13659
G1 X213.398 Y241.431 E0.04271
G1 X211.425 Y241.665 E0.13629
G1 X210.799 Y241.715 E0.04308
G1 X208.813 Y241.793 E0.13634
G1 X208.187 Y241.793 E0.04294
G1 X206.201 Y241.715 E0.13634
G1 X205.575 Y241.665 E0.04308
G1 X203.602 Y241.431 E0.13629
G1 X202.987 Y241.334 E0.04271
G1 X201.034 Y240.946 E0.13659
G1 X200.424 Y240.8 E0.04303
G1 X198.512 Y240.261 E0.13627
G1 X197.915 Y240.067 E0.04306
G1 X196.048 Y239.378 E0.13652
G1 X195.472 Y239.139 E0.04278
G1 X193.666 Y238.307 E0.1364
G1 X193.102 Y238.02 E0.04341
G1 X191.369 Y237.048 E0.1363
G1 X190.841 Y236.724 E0.0425
G1 X189.185 Y235.618 E0.13661
G1 X188.674 Y235.247 E0.04332
G1 X187.115 Y234.017 E0.13622
G1 X186.645 Y233.615 E0.04243
G1 X185.183 Y232.265 E0.13651
G1 X184.734 Y231.816 E0.04356
G1 X183.385 Y230.355 E0.13641
G1 X182.983 Y229.885 E0.04243
G1 X181.752 Y228.325 E0.13632
G1 X181.38 Y227.813 E0.04341
G1 X180.275 Y226.158 E0.13651
G1 X179.952 Y225.631 E0.0424
G1 X178.979 Y223.896 E0.13646
G1 X178.692 Y223.332 E0.04341
G1 X177.861 Y221.528 E0.13625
G1 X177.624 Y220.956 E0.04247
G1 X176.934 Y219.089 E0.13654
G1 X176.737 Y218.484 E0.04365
G1 X176.199 Y216.572 E0.13625
G1 X176.054 Y215.966 E0.04274
G1 X175.666 Y214.013 E0.13659
G1 X175.569 Y213.398 E0.04271
G1 X175.335 Y211.425 E0.13629
G1 X175.285 Y210.799 E0.04308
G1 X175.207 Y208.814 E0.13627
G1 X175.207 Y208.188 E0.04294
G1 X175.285 Y206.201 E0.13641
G1 X175.335 Y205.575 E0.04308
G1 X175.569 Y203.602 E0.13629
G1 X175.666 Y202.987 E0.04271
G1 X176.054 Y201.034 E0.13659
G1 X176.2 Y200.424 E0.04303
G1 X176.739 Y198.512 E0.13627
G1 X176.933 Y197.915 E0.04306
G1 X177.622 Y196.048 E0.13652
G1 X177.861 Y195.472 E0.04278
G1 X178.692 Y193.668 E0.13625
G1 X178.979 Y193.104 E0.04341
G1 X179.952 Y191.369 E0.13646
G1 X180.275 Y190.842 E0.0424
G1 X181.38 Y189.187 E0.13651
G1 X181.752 Y188.675 E0.04341
G1 X182.983 Y187.115 E0.13632
G1 X183.385 Y186.645 E0.04243
G1 X184.734 Y185.184 E0.13641
G0 F3600 X185.138 Y185.557
G1 F1800 X185.556 Y185.139 E0.04055
G1 X187.018 Y183.789 E0.13651
G1 X187.456 Y183.415 E0.03951
G1 X189.015 Y182.185 E0.13622
G1 X189.49 Y181.839 E0.04031
G1 X191.146 Y180.733 E0.13661
G1 X191.638 Y180.432 E0.03957
G1 X193.371 Y179.46 E0.1363
G1 X193.896 Y179.192 E0.04044
G1 X195.702 Y178.36 E0.1364
G1 X196.235 Y178.139 E0.03958
G1 X198.102 Y177.449 E0.13654
G1 X198.665 Y177.267 E0.04059
G1 X200.577 Y176.729 E0.13625
G1 X201.141 Y176.593 E0.0398
G1 X203.094 Y176.205 E0.13659
G1 X203.667 Y176.115 E0.03979
G1 X205.64 Y175.881 E0.13629
G1 X206.223 Y175.835 E0.04012
G1 X208.209 Y175.757 E0.13634
G1 X208.791 Y175.757 E0.03992
G1 X210.777 Y175.835 E0.13634
G1 X211.36 Y175.881 E0.04012
G1 X213.333 Y176.115 E0.13629
G1 X213.906 Y176.205 E0.03979
G1 X215.859 Y176.593 E0.13659
G1 X216.427 Y176.73 E0.04008
G1 X218.339 Y177.269 E0.13627
G1 X218.895 Y177.449 E0.04009
G1 X220.762 Y178.138 E0.13652
G1 X221.298 Y178.36 E0.0398
G1 X223.102 Y179.191 E0.13625
G1 X223.627 Y179.459 E0.04044
G1 X225.362 Y180.432 E0.13646
G1 X225.853 Y180.733 E0.03951
G1 X227.508 Y181.838 E0.13651
G1 X227.985 Y182.184 E0.04042
G1 X229.545 Y183.415 E0.13632
G1 X229.982 Y183.789 E0.03946
G1 X231.443 Y185.138 E0.13641
G1 X231.861 Y185.556 E0.04055
G1 X233.211 Y187.018 E0.13651
G1 X233.585 Y187.456 E0.03951
G1 X234.815 Y189.015 E0.13622
G1 X235.161 Y189.49 E0.04031
G1 X236.267 Y191.146 E0.13661
G1 X236.568 Y191.638 E0.03957
G1 X237.54 Y193.371 E0.1363
G1 X237.808 Y193.896 E0.04044
G1 X238.64 Y195.702 E0.1364
G1 X238.861 Y196.235 E0.03958
G1 X239.551 Y198.102 E0.13654
G1 X239.733 Y198.665 E0.04059
G1 X240.271 Y200.577 E0.13625
G1 X240.406 Y201.14 E0.03972
G1 X240.794 Y203.091 E0.13646
G1 X240.885 Y203.665 E0.03987
G1 X241.119 Y205.639 E0.13636
G1 X241.165 Y206.222 E0.04012
G1 X241.243 Y208.208 E0.13634
G1 X241.243 Y208.79 E0.03992
G1 X241.165 Y210.777 E0.13641
G1 X241.119 Y211.36 E0.04012
G1 X240.885 Y213.333 E0.13629
G1 X240.795 Y213.906 E0.03979
G1 X240.407 Y215.859 E0.13659
G1 X240.27 Y216.427 E0.04008
G1 X239.731 Y218.339 E0.13627
G1 X239.551 Y218.895 E0.04009
G1 X238.862 Y220.762 E0.13652
G1 X238.64 Y221.298 E0.0398
G1 X237.809 Y223.102 E0.13625
G1 X237.541 Y223.627 E0.04044
G1 X236.568 Y225.362 E0.13646
G1 X236.267 Y225.853 E0.03951
G1 X235.162 Y227.508 E0.13651
G1 X234.816 Y227.985 E0.04042
G1 X233.585 Y229.545 E0.13632
G1 X233.211 Y229.982 E0.03946
G1 X231.862 Y231.443 E0.13641
G1 X231.444 Y231.861 E0.04055
G1 X229.982 Y233.211 E0.13651
G1 X229.544 Y233.585 E0.03951
G1 X227.985 Y234.815 E0.13622
G1 X227.51 Y235.161 E0.04031
G1 X225.854 Y236.267 E0.13661
G1 X225.362 Y236.568 E0.03957
G1 X223.629 Y237.54 E0.1363
G1 X223.104 Y237.808 E0.04044
G1 X221.298 Y238.64 E0.1364
G1 X220.765 Y238.861 E0.03958
G1 X218.898 Y239.551 E0.13654
G1 X218.335 Y239.733 E0.04059
G1 X216.423 Y240.271 E0.13625
G1 X215.859 Y240.407 E0.0398
G1 X213.906 Y240.795 E0.13659
G1 X213.333 Y240.885 E0.03979
G1 X211.36 Y241.119 E0.13629
G1 X210.777 Y241.165 E0.04012
G1 X208.791 Y241.243 E0.13634
G1 X208.209 Y241.243 E0.03992
G1 X206.223 Y241.165 E0.13634
G1 X205.64 Y241.119 E0.04012
G1 X203.667 Y240.885 E0.13629
G1 X203.094 Y240.795 E0.03979
G1 X201.141 Y240.407 E0.13659
G1 X200.573 Y240.27 E0.04008
G1 X198.661 Y239.731 E0.13627
G1 X198.105 Y239.551 E0.04009
G1 X196.238 Y238.862 E0.13652
G1 X195.702 Y238.64 E0.0398
G1 X193.896 Y237.808 E0.1364
G1 X193.371 Y237.54 E0.04044
G1 X191.638 Y236.568 E0.1363
G1 X191.146 Y236.267 E0.03957
G1 X189.49 Y235.161 E0.13661
G1 X189.015 Y234.815 E0.04031
G1 X187.456 Y233.585 E0.13622
G1 X187.018 Y233.211 E0.03951
G1 X185.556 Y231.861 E0.13651
G1 X185.138 Y231.443 E0.04055
G1 X183.789 Y229.982 E0.13641
G1 X183.415 Y229.545 E0.03946
G1 X182.184 Y227.985 E0.13632
G1 X181.838 Y227.508 E0.04042
G1 X180.733 Y225.853 E0.13651
G1 X180.432 Y225.362 E0.03951
G1 X179.459 Y223.627 E0.13646
G1 X179.191 Y223.102 E0.04044
G1 X178.36 Y221.298 E0.13625
G1 X178.139 Y220.765 E0.03958
G1 X177.449 Y218.898 E0.13654
G1 X177.267 Y218.335 E0.04059
G1 X176.729 Y216.423 E0.13625
G1 X176.593 Y215.859 E0.0398
G1 X176.205 Y213.906 E0.13659
G1 X176.115 Y213.333 E0.03979
G1 X175.881 Y211.36 E0.13629
G1 X175.835 Y210.778 E0.04005
G1 X175.757 Y208.793 E0.13627
G1 X175.757 Y208.21 E0.03999
G1 X175.835 Y206.223 E0.13641
G1 X175.881 Y205.64 E0.04012
G1 X176.115 Y203.667 E0.13629
G1 X176.205 Y203.094 E0.03979
G1 X176.593 Y201.141 E0.13659
G1 X176.73 Y200.573 E0.04008
G1 X177.269 Y198.661 E0.13627
G1 X177.449 Y198.105 E0.04009
G1 X178.138 Y196.238 E0.13652
G1 X178.36 Y195.702 E0.0398
G1 X179.191 Y193.898 E0.13625
G1 X179.459 Y193.373 E0.04044
G1 X180.432 Y191.638 E0.13646
G1 X180.733 Y191.147 E0.03951
G1 X181.838 Y189.492 E0.13651
G1 X182.184 Y189.015 E0.04042
G1 X183.415 Y187.455 E0.13632
G1 X183.789 Y187.018 E0.03946
G1 X185.138 Y185.557 E0.13641
G0 F3600 X185.542 Y185.93
G1 F1800 X185.929 Y185.543 E0.03754
G1 X187.391 Y184.193 E0.13651
G1 X187.797 Y183.847 E0.03659
G1 X189.356 Y182.617 E0.13622
G1 X189.796 Y182.297 E0.03732
G1 X191.452 Y181.191 E0.13661
G1 X191.907 Y180.912 E0.03661
G1 X193.64 Y179.94 E0.1363
G1 X194.126 Y179.692 E0.03743
G1 X195.932 Y178.86 E0.1364
G1 X196.426 Y178.655 E0.03669
G1 X198.293 Y177.965 E0.13654
G1 X198.814 Y177.796 E0.03757
G1 X200.726 Y177.258 E0.13625
G1 X201.248 Y177.133 E0.03682
G1 X203.201 Y176.745 E0.13659
G1 X203.731 Y176.661 E0.03681
G1 X205.704 Y176.427 E0.13629
G1 X206.244 Y176.384 E0.03716
G1 X208.23 Y176.306 E0.13634
G1 X208.77 Y176.306 E0.03704
G1 X210.756 Y176.384 E0.13634
G1 X211.296 Y176.427 E0.03716
G1 X213.269 Y176.661 E0.13629
G1 X213.799 Y176.745 E0.03681
G1 X215.752 Y177.133 E0.13659
G1 X216.277 Y177.259 E0.03704
G1 X218.189 Y177.798 E0.13627
G1 X218.704 Y177.965 E0.03714
G1 X220.571 Y178.654 E0.13652
G1 X221.067 Y178.86 E0.03684
G1 X222.871 Y179.691 E0.13625
G1 X223.358 Y179.939 E0.03749
G1 X225.093 Y180.912 E0.13646
G1 X225.548 Y181.19 E0.03658
G1 X227.203 Y182.295 E0.13651
G1 X227.644 Y182.616 E0.03742
G1 X229.204 Y183.847 E0.13632
G1 X229.609 Y184.193 E0.03654
G1 X231.07 Y185.542 E0.13641
G1 X231.457 Y185.929 E0.03754
G1 X232.807 Y187.391 E0.13651
G1 X233.153 Y187.797 E0.03659
G1 X234.383 Y189.356 E0.13622
G1 X234.703 Y189.796 E0.03732
G1 X235.809 Y191.452 E0.13661
G1 X236.088 Y191.907 E0.03661
G1 X237.06 Y193.64 E0.1363
G1 X237.308 Y194.126 E0.03743
G1 X238.14 Y195.932 E0.1364
G1 X238.345 Y196.426 E0.03669
G1 X239.035 Y198.293 E0.13654
G1 X239.204 Y198.814 E0.03757
G1 X239.742 Y200.726 E0.13625
G1 X239.867 Y201.247 E0.03675
G1 X240.255 Y203.198 E0.13646
G1 X240.339 Y203.73 E0.03695
G1 X240.573 Y205.704 E0.13636
G1 X240.616 Y206.243 E0.03709
G1 X240.694 Y208.229 E0.13634
G1 X240.694 Y208.769 E0.03704
G1 X240.616 Y210.756 E0.13641
G1 X240.573 Y211.296 E0.03716
G1 X240.339 Y213.269 E0.13629
G1 X240.255 Y213.799 E0.03681
G1 X239.867 Y215.752 E0.13659
G1 X239.741 Y216.277 E0.03704
G1 X239.202 Y218.189 E0.13627
G1 X239.035 Y218.704 E0.03714
G1 X238.346 Y220.571 E0.13652
G1 X238.14 Y221.067 E0.03684
G1 X237.309 Y222.871 E0.13625
G1 X237.061 Y223.358 E0.03749
G1 X236.088 Y225.093 E0.13646
G1 X235.81 Y225.548 E0.03658
G1 X234.705 Y227.203 E0.13651
G1 X234.384 Y227.644 E0.03742
G1 X233.153 Y229.204 E0.13632
G1 X232.807 Y229.609 E0.03654
G1 X231.458 Y231.07 E0.13641
G1 X231.071 Y231.457 E0.03754
G1 X229.609 Y232.807 E0.13651
G1 X229.203 Y233.153 E0.03659
G1 X227.644 Y234.383 E0.13622
G1 X227.204 Y234.703 E0.03732
G1 X225.548 Y235.809 E0.13661
G1 X225.093 Y236.088 E0.03661
G1 X223.36 Y237.06 E0.1363
G1 X222.874 Y237.308 E0.03743
G1 X221.068 Y238.14 E0.1364
G1 X220.574 Y238.345 E0.03669
G1 X218.707 Y239.035 E0.13654
G1 X218.186 Y239.204 E0.03757
G1 X216.274 Y239.742 E0.13625
G1 X215.752 Y239.867 E0.03682
G1 X213.799 Y240.255 E0.13659
G1 X213.269 Y240.339 E0.03681
G1 X211.296 Y240.573 E0.13629
G1 X210.756 Y240.616 E0.03716
G1 X208.77 Y240.694 E0.13634
G1 X208.23 Y240.694 E0.03704
G1 X206.244 Y240.616 E0.13634
G1 X205.704 Y240.573 E0.03716
G1 X203.731 Y240.339 E0.13629
G1 X203.201 Y240.255 E0.03681
G1 X201.248 Y239.867 E0.13659
G1 X200.723 Y239.741 E0.03704
G1 X198.811 Y239.202 E0.13627
G1 X198.296 Y239.035 E0.03714
G1 X196.429 Y238.346 E0.13652
G1 X195.932 Y238.14 E0.03691
G1 X194.126 Y237.308 E0.1364
G1 X193.64 Y237.06 E0.03743
G1 X191.907 Y236.088 E0.1363
G1 X191.452 Y235.809 E0.03661
G1 X189.796 Y234.703 E0.13661
G1 X189.356 Y234.383 E0.03732
G1 X187.797 Y233.153 E0.13622
G1 X187.391 Y232.807 E0.03659
G1 X185.929 Y231.457 E0.13651
G1 X185.542 Y231.07 E0.03754
G1 X184.193 Y229.609 E0.13641
G1 X183.847 Y229.204 E0.03654
G1 X182.616 Y227.644 E0.13632
G1 X182.295 Y227.203 E0.03742
G1 X181.19 Y225.548 E0.13651
G1 X180.912 Y225.093 E0.03658
G1 X179.939 Y223.358 E0.13646
G1 X179.691 Y222.871 E0.03749
G1 X178.86 Y221.067 E0.13625
G1 X178.655 Y220.574 E0.03663
G1 X177.965 Y218.707 E0.13654
G1 X177.796 Y218.186 E0.03757
G1 X177.258 Y216.274 E0.13625
G1 X177.133 Y215.752 E0.03682
G1 X176.745 Y213.799 E0.13659
G1 X176.661 Y213.269 E0.03681
G1 X176.427 Y211.296 E0.13629
G1 X176.384 Y210.756 E0.03716
G1 X176.306 Y208.771 E0.13627
G1 X176.306 Y208.231 E0.03704
G1 X176.384 Y206.244 E0.13641
G1 X176.427 Y205.704 E0.03716
G1 X176.661 Y203.731 E0.13629
G1 X176.745 Y203.201 E0.03681
G1 X177.133 Y201.248 E0.13659
G1 X177.259 Y200.723 E0.03704
G1 X177.798 Y198.811 E0.13627
G1 X177.965 Y198.296 E0.03714
G1 X178.654 Y196.429 E0.13652
G1 X178.86 Y195.933 E0.03684
G1 X179.691 Y194.129 E0.13625
G1 X179.939 Y193.642 E0.03749
G1 X180.912 Y191.907 E0.13646
G1 X181.19 Y191.452 E0.03658
G1 X182.295 Y189.797 E0.13651
G1 X182.616 Y189.356 E0.03742
G1 X183.847 Y187.796 E0.13632
G1 X184.193 Y187.391 E0.03654
G1 X185.542 Y185.93 E0.13641
G0 F3600 X185.946 Y186.303
G1 F1800 X186.302 Y185.947 E0.03454
G1 X187.764 Y184.597 E0.13651
G1 X188.137 Y184.278 E0.03367
G1 X189.696 Y183.048 E0.13622
G1 X190.101 Y182.754 E0.03433
G1 X191.757 Y181.648 E0.13661
G1 X192.176 Y181.391 E0.03372
G1 X193.909 Y180.419 E0.1363
G1 X194.356 Y180.191 E0.03442
G1 X196.162 Y179.359 E0.1364
G1 X196.616 Y179.171 E0.03371
G1 X198.483 Y178.481 E0.13654
G1 X198.963 Y178.325 E0.03462
G1 X200.875 Y177.787 E0.13625
G1 X201.356 Y177.672 E0.03393
G1 X203.309 Y177.284 E0.13659
G1 X203.796 Y177.207 E0.03382
G1 X205.769 Y176.973 E0.13629
G1 X206.266 Y176.934 E0.0342
G1 X208.252 Y176.856 E0.13634
G1 X208.748 Y176.856 E0.03403
G1 X210.734 Y176.934 E0.13634
G1 X211.231 Y176.973 E0.0342
G1 X213.204 Y177.207 E0.13629
G1 X213.691 Y177.284 E0.03382
G1 X215.644 Y177.672 E0.13659
G1 X216.128 Y177.788 E0.03414
G1 X218.04 Y178.327 E0.13627
G1 X218.514 Y178.481 E0.03419
G1 X220.381 Y179.17 E0.13652
G1 X220.837 Y179.359 E0.03386
G1 X222.641 Y180.19 E0.13625
G1 X223.089 Y180.418 E0.03448
G1 X224.824 Y181.391 E0.13646
G1 X225.242 Y181.648 E0.03366
G1 X226.897 Y182.753 E0.13651
G1 X227.303 Y183.048 E0.03443
G1 X228.863 Y184.279 E0.13632
G1 X229.236 Y184.597 E0.03362
G1 X230.697 Y185.946 E0.13641
