;FLAVOR:RepRap
;TIME:3192
;Filament used: 5.53793m
;Layer height: 0.3
;Generated with Cura_SteamEngine 3.3.1
T0
M190 S70
M104 S240
M109 S240
M82 ;absolute extrusion mode
G90; Absolute Mode
G0 X0 Y0 Z0; Home
G1 Z15.0 F6000 ;Move the platform down 15mm
G92 E0
G1 F200 E3
G92 E0
M83 ;relative extrusion mode
G1 F1500 E-6.5
;LAYER_COUNT:17
;LAYER:0
M106 S127.5
G0 F3600 X160.451 Y163.772 Z0.3
;TYPE:SKIRT
G1 F1500 E6.5
G1 F1800 X161.052 Y163.246 E0.05479
G1 X161.702 Y162.782 E0.05478
G1 X162.396 Y162.386 E0.05481
G1 X163.125 Y162.061 E0.05475
G1 X163.883 Y161.811 E0.05475
G1 X164.663 Y161.638 E0.05481
G1 X165.456 Y161.544 E0.05478
G1 X166 Y161.525 E0.03734
G1 X251 Y161.525 E5.83092
G1 X251.797 Y161.565 E0.05474
G1 X252.587 Y161.684 E0.0548
G1 X253.361 Y161.882 E0.05481
G1 X254.111 Y162.157 E0.0548
G1 X254.829 Y162.504 E0.0547
G1 X255.51 Y162.922 E0.05481
G1 X256.145 Y163.406 E0.05477
G1 X256.728 Y163.951 E0.05475
G1 X257.254 Y164.552 E0.05479
G1 X257.718 Y165.202 E0.05478
G1 X258.114 Y165.896 E0.05481
G1 X258.439 Y166.625 E0.05475
G1 X258.689 Y167.383 E0.05475
G1 X258.862 Y168.163 E0.05481
G1 X258.956 Y168.956 E0.05478
G1 X258.975 Y169.5 E0.03734
G1 X258.975 Y247.5 E5.35072
G1 X258.935 Y248.297 E0.05474
G1 X258.816 Y249.087 E0.0548
G1 X258.618 Y249.861 E0.05481
G1 X258.343 Y250.611 E0.0548
G1 X257.996 Y251.329 E0.0547
G1 X257.578 Y252.01 E0.05481
G1 X257.094 Y252.645 E0.05477
G1 X256.549 Y253.228 E0.05475
G1 X255.948 Y253.754 E0.05479
G1 X255.298 Y254.218 E0.05478
G1 X254.604 Y254.614 E0.05481
G1 X253.875 Y254.939 E0.05475
G1 X253.117 Y255.189 E0.05475
G1 X252.337 Y255.362 E0.05481
G1 X251.544 Y255.456 E0.05478
G1 X251 Y255.475 E0.03734
G1 X166 Y255.475 E5.83092
G1 X165.203 Y255.435 E0.05474
G1 X164.413 Y255.316 E0.0548
G1 X163.639 Y255.118 E0.05481
G1 X162.889 Y254.843 E0.0548
G1 X162.171 Y254.496 E0.0547
G1 X161.49 Y254.078 E0.05481
G1 X160.855 Y253.594 E0.05477
G1 X160.272 Y253.049 E0.05475
G1 X159.746 Y252.448 E0.05479
G1 X159.282 Y251.798 E0.05478
G1 X158.886 Y251.104 E0.05481
G1 X158.561 Y250.375 E0.05475
G1 X158.311 Y249.617 E0.05475
G1 X158.138 Y248.837 E0.05481
G1 X158.044 Y248.044 E0.05478
G1 X158.025 Y247.5 E0.03734
G1 X158.025 Y169.5 E5.35072
G1 X158.065 Y168.703 E0.05474
G1 X158.184 Y167.913 E0.0548
G1 X158.382 Y167.139 E0.05481
G1 X158.657 Y166.389 E0.0548
G1 X159.004 Y165.671 E0.0547
G1 X159.422 Y164.99 E0.05481
G1 X159.906 Y164.355 E0.05477
G1 X160.451 Y163.772 E0.05475
G0 F3600 X160.992 Y164.018
G1 F1800 X161.587 Y163.529 E0.05283
G1 X162.229 Y163.104 E0.05282
G1 X162.912 Y162.747 E0.05287
G1 X163.629 Y162.464 E0.05288
G1 X164.371 Y162.256 E0.05286
G1 X165.13 Y162.126 E0.05282
G1 X166 Y162.075 E0.05978
G1 X251 Y162.075 E5.83092
G1 X251.769 Y162.115 E0.05282
G1 X252.531 Y162.234 E0.05291
G1 X253.275 Y162.432 E0.05281
G1 X253.995 Y162.706 E0.05285
G1 X254.683 Y163.053 E0.05286
G1 X255.332 Y163.469 E0.05288
G1 X255.933 Y163.951 E0.05285
G1 X256.482 Y164.492 E0.05287
G1 X256.971 Y165.087 E0.05283
G1 X257.396 Y165.729 E0.05282
G1 X257.753 Y166.412 E0.05287
G1 X258.036 Y167.129 E0.05288
G1 X258.244 Y167.871 E0.05286
G1 X258.374 Y168.63 E0.05282
G1 X258.425 Y169.5 E0.05978
G1 X258.425 Y247.5 E5.35072
G1 X258.385 Y248.269 E0.05282
G1 X258.266 Y249.031 E0.05291
G1 X258.068 Y249.775 E0.05281
G1 X257.794 Y250.495 E0.05285
G1 X257.447 Y251.183 E0.05286
G1 X257.031 Y251.832 E0.05288
G1 X256.549 Y252.433 E0.05285
G1 X256.008 Y252.982 E0.05287
G1 X255.413 Y253.471 E0.05283
G1 X254.771 Y253.896 E0.05282
G1 X254.088 Y254.253 E0.05287
G1 X253.371 Y254.536 E0.05288
G1 X252.629 Y254.744 E0.05286
G1 X251.87 Y254.874 E0.05282
G1 X251 Y254.925 E0.05978
G1 X166 Y254.925 E5.83092
G1 X165.231 Y254.885 E0.05282
G1 X164.469 Y254.766 E0.05291
G1 X163.725 Y254.568 E0.05281
G1 X163.005 Y254.294 E0.05285
G1 X162.317 Y253.947 E0.05286
G1 X161.668 Y253.531 E0.05288
G1 X161.067 Y253.049 E0.05285
G1 X160.518 Y252.508 E0.05287
G1 X160.029 Y251.913 E0.05283
G1 X159.604 Y251.271 E0.05282
G1 X159.247 Y250.588 E0.05287
G1 X158.964 Y249.871 E0.05288
G1 X158.756 Y249.129 E0.05286
G1 X158.626 Y248.37 E0.05282
G1 X158.575 Y247.5 E0.05978
G1 X158.575 Y169.5 E5.35072
G1 X158.615 Y168.731 E0.05282
G1 X158.734 Y167.969 E0.05291
G1 X158.932 Y167.225 E0.05281
G1 X159.206 Y166.505 E0.05285
G1 X159.553 Y165.817 E0.05286
G1 X159.969 Y165.168 E0.05288
G1 X160.451 Y164.567 E0.05285
G1 X160.992 Y164.018 E0.05287
G0 F3600 X160.994 Y164.788
G1 F1800 X161.531 Y164.276 E0.0509
G1 X162.119 Y163.825 E0.05083
G1 X162.753 Y163.44 E0.05088
G1 X163.424 Y163.126 E0.05082
G1 X164.125 Y162.886 E0.05083
G1 X164.848 Y162.722 E0.05086
G1 X165.585 Y162.638 E0.05088
G1 X166 Y162.625 E0.02848
G1 X251 Y162.625 E5.83092
G1 X251.74 Y162.665 E0.05084
G1 X252.472 Y162.784 E0.05087
G1 X253.186 Y162.982 E0.05083
G1 X253.876 Y163.255 E0.0509
G1 X254.531 Y163.601 E0.05082
G1 X255.146 Y164.016 E0.0509
G1 X255.712 Y164.494 E0.05082
G1 X256.224 Y165.031 E0.0509
G1 X256.675 Y165.619 E0.05083
G1 X257.06 Y166.253 E0.05088
G1 X257.374 Y166.924 E0.05082
G1 X257.614 Y167.625 E0.05083
G1 X257.778 Y168.348 E0.05086
G1 X257.862 Y169.085 E0.05088
G1 X257.875 Y169.5 E0.02848
G1 X257.875 Y247.5 E5.35072
G1 X257.835 Y248.24 E0.05084
G1 X257.716 Y248.972 E0.05087
G1 X257.518 Y249.686 E0.05083
G1 X257.245 Y250.376 E0.0509
G1 X256.899 Y251.031 E0.05082
G1 X256.484 Y251.646 E0.0509
G1 X256.006 Y252.212 E0.05082
G1 X255.469 Y252.724 E0.0509
G1 X254.881 Y253.175 E0.05083
G1 X254.247 Y253.56 E0.05088
G1 X253.576 Y253.874 E0.05082
G1 X252.875 Y254.114 E0.05083
G1 X252.152 Y254.278 E0.05086
G1 X251.415 Y254.362 E0.05088
G1 X251 Y254.375 E0.02848
G1 X166 Y254.375 E5.83092
G1 X165.26 Y254.335 E0.05084
G1 X164.528 Y254.216 E0.05087
G1 X163.814 Y254.018 E0.05083
G1 X163.124 Y253.745 E0.0509
G1 X162.469 Y253.399 E0.05082
G1 X161.854 Y252.984 E0.0509
G1 X161.288 Y252.506 E0.05082
G1 X160.776 Y251.969 E0.0509
G1 X160.325 Y251.381 E0.05083
G1 X159.94 Y250.747 E0.05088
G1 X159.626 Y250.076 E0.05082
G1 X159.386 Y249.375 E0.05083
G1 X159.222 Y248.652 E0.05086
G1 X159.138 Y247.915 E0.05088
G1 X159.125 Y247.5 E0.02848
G1 X159.125 Y169.5 E5.35072
G1 X159.165 Y168.76 E0.05084
G1 X159.284 Y168.028 E0.05087
G1 X159.482 Y167.314 E0.05083
G1 X159.755 Y166.624 E0.0509
G1 X160.101 Y165.969 E0.05082
G1 X160.516 Y165.354 E0.0509
G1 X160.994 Y164.788 E0.05082
G0 F3600 X161.536 Y165.019
G1 F1800 X162.067 Y164.546 E0.04878
G1 X162.648 Y164.136 E0.04878
G1 X163.272 Y163.794 E0.04881
G1 X163.929 Y163.524 E0.04873
G1 X164.613 Y163.329 E0.04879
G1 X165.315 Y163.212 E0.04882
G1 X166 Y163.175 E0.04706
G1 X251 Y163.175 E5.83092
G1 X251.71 Y163.215 E0.04878
G1 X252.411 Y163.334 E0.04878
G1 X253.094 Y163.532 E0.04878
G1 X253.751 Y163.804 E0.04878
G1 X254.373 Y164.149 E0.04879
G1 X254.952 Y164.562 E0.04879
G1 X255.481 Y165.036 E0.04873
G1 X255.954 Y165.567 E0.04878
G1 X256.364 Y166.148 E0.04878
G1 X256.706 Y166.772 E0.04881
G1 X256.976 Y167.429 E0.04873
G1 X257.171 Y168.113 E0.04879
G1 X257.288 Y168.815 E0.04882
G1 X257.325 Y169.5 E0.04706
G1 X257.325 Y247.5 E5.35072
G1 X257.285 Y248.21 E0.04878
G1 X257.166 Y248.911 E0.04878
G1 X256.968 Y249.594 E0.04878
G1 X256.696 Y250.251 E0.04878
G1 X256.351 Y250.873 E0.04879
G1 X255.938 Y251.452 E0.04879
G1 X255.464 Y251.981 E0.04873
G1 X254.933 Y252.454 E0.04878
G1 X254.352 Y252.864 E0.04878
G1 X253.728 Y253.206 E0.04881
G1 X253.071 Y253.476 E0.04873
G1 X252.387 Y253.671 E0.04879
G1 X251.685 Y253.788 E0.04882
G1 X251 Y253.825 E0.04706
G1 X166 Y253.825 E5.83092
G1 X165.29 Y253.785 E0.04878
G1 X164.589 Y253.666 E0.04878
G1 X163.906 Y253.468 E0.04878
G1 X163.249 Y253.196 E0.04878
G1 X162.627 Y252.851 E0.04879
G1 X162.048 Y252.438 E0.04879
G1 X161.519 Y251.964 E0.04873
G1 X161.046 Y251.433 E0.04878
G1 X160.636 Y250.852 E0.04878
G1 X160.294 Y250.228 E0.04881
G1 X160.024 Y249.571 E0.04873
G1 X159.829 Y248.887 E0.04879
G1 X159.712 Y248.185 E0.04882
G1 X159.675 Y247.5 E0.04706
G1 X159.675 Y169.5 E5.35072
G1 X159.715 Y168.79 E0.04878
G1 X159.834 Y168.089 E0.04878
G1 X160.032 Y167.406 E0.04878
G1 X160.304 Y166.749 E0.04878
G1 X160.649 Y166.127 E0.04879
G1 X161.062 Y165.548 E0.04879
G1 X161.536 Y165.019 E0.04873
G0 F3600 X162.077 Y165.262
G1 F1800 X162.602 Y164.831 E0.0466
G1 X163.174 Y164.464 E0.04662
G1 X163.785 Y164.167 E0.0466
G1 X164.427 Y163.943 E0.04664
G1 X165.09 Y163.797 E0.04657
G1 X166 Y163.725 E0.06262
G1 X251 Y163.725 E5.83092
G1 X251.678 Y163.765 E0.04659
G1 X252.347 Y163.884 E0.04661
G1 X252.997 Y164.081 E0.04659
G1 X253.62 Y164.353 E0.04663
G1 X254.206 Y164.697 E0.04661
G1 X254.748 Y165.107 E0.04662
G1 X255.238 Y165.577 E0.04658
G1 X255.669 Y166.102 E0.0466
G1 X256.036 Y166.674 E0.04662
G1 X256.333 Y167.285 E0.0466
G1 X256.557 Y167.927 E0.04664
G1 X256.703 Y168.59 E0.04657
G1 X256.775 Y169.5 E0.06262
G1 X256.775 Y247.5 E5.35072
G1 X256.735 Y248.178 E0.04659
G1 X256.616 Y248.847 E0.04661
G1 X256.419 Y249.497 E0.04659
G1 X256.147 Y250.12 E0.04663
G1 X255.803 Y250.706 E0.04661
G1 X255.393 Y251.248 E0.04662
G1 X254.923 Y251.738 E0.04658
G1 X254.398 Y252.169 E0.0466
G1 X253.826 Y252.536 E0.04662
G1 X253.215 Y252.833 E0.0466
G1 X252.573 Y253.057 E0.04664
G1 X251.91 Y253.203 E0.04657
G1 X251 Y253.275 E0.06262
G1 X166 Y253.275 E5.83092
G1 X165.322 Y253.235 E0.04659
G1 X164.653 Y253.116 E0.04661
G1 X164.003 Y252.919 E0.04659
G1 X163.38 Y252.647 E0.04663
G1 X162.794 Y252.303 E0.04661
G1 X162.252 Y251.893 E0.04662
G1 X161.762 Y251.423 E0.04658
G1 X161.331 Y250.898 E0.0466
G1 X160.964 Y250.326 E0.04662
G1 X160.667 Y249.715 E0.0466
G1 X160.443 Y249.073 E0.04664
G1 X160.297 Y248.41 E0.04657
G1 X160.225 Y247.5 E0.06262
G1 X160.225 Y169.5 E5.35072
G1 X160.265 Y168.822 E0.04659
G1 X160.384 Y168.153 E0.04661
G1 X160.581 Y167.503 E0.04659
G1 X160.853 Y166.88 E0.04663
G1 X161.197 Y166.294 E0.04661
G1 X161.607 Y165.752 E0.04662
G1 X162.077 Y165.262 E0.04658
G0 F3600 X162.15 Y165.967
G1 F1800 X162.616 Y165.519 E0.04434
G1 X163.133 Y165.132 E0.0443
G1 X163.695 Y164.811 E0.0444
G1 X164.291 Y164.562 E0.04431
G1 X164.914 Y164.389 E0.04435
G1 X165.553 Y164.294 E0.04432
G1 X166 Y164.275 E0.03069
G1 X251 Y164.275 E5.83092
G1 X251.645 Y164.315 E0.04433
G1 X252.28 Y164.434 E0.04432
G1 X252.896 Y164.631 E0.04437
G1 X253.482 Y164.902 E0.04429
G1 X254.031 Y165.244 E0.04437
G1 X254.533 Y165.65 E0.04429
G1 X254.981 Y166.116 E0.04434
G1 X255.368 Y166.633 E0.0443
G1 X255.689 Y167.195 E0.0444
G1 X255.938 Y167.791 E0.04431
G1 X256.111 Y168.414 E0.04435
G1 X256.206 Y169.053 E0.04432
G1 X256.225 Y169.5 E0.03069
G1 X256.225 Y247.5 E5.35072
G1 X256.185 Y248.145 E0.04433
G1 X256.066 Y248.78 E0.04432
G1 X255.869 Y249.396 E0.04437
G1 X255.598 Y249.982 E0.04429
G1 X255.256 Y250.531 E0.04437
G1 X254.85 Y251.033 E0.04429
G1 X254.384 Y251.481 E0.04434
G1 X253.867 Y251.868 E0.0443
G1 X253.305 Y252.189 E0.0444
G1 X252.709 Y252.438 E0.04431
G1 X252.086 Y252.611 E0.04435
G1 X251.447 Y252.706 E0.04432
G1 X251 Y252.725 E0.03069
G1 X166 Y252.725 E5.83092
G1 X165.355 Y252.685 E0.04433
G1 X164.72 Y252.566 E0.04432
G1 X164.104 Y252.369 E0.04437
G1 X163.518 Y252.098 E0.04429
G1 X162.969 Y251.756 E0.04437
G1 X162.467 Y251.35 E0.04429
G1 X162.019 Y250.884 E0.04434
G1 X161.632 Y250.367 E0.0443
G1 X161.311 Y249.805 E0.0444
G1 X161.062 Y249.209 E0.04431
G1 X160.889 Y248.586 E0.04435
G1 X160.794 Y247.947 E0.04432
G1 X160.775 Y247.5 E0.03069
G1 X160.775 Y169.5 E5.35072
G1 X160.815 Y168.855 E0.04433
G1 X160.934 Y168.22 E0.04432
G1 X161.131 Y167.604 E0.04437
G1 X161.402 Y167.018 E0.04429
G1 X161.744 Y166.469 E0.04437
G1 X162.15 Y165.967 E0.04429
G0 F3600 X162.693 Y166.196
G1 F1800 X163.152 Y165.792 E0.04195
G1 X163.66 Y165.452 E0.04193
G1 X164.209 Y165.182 E0.04197
G1 X164.787 Y164.985 E0.04189
G1 X165.387 Y164.865 E0.04197
G1 X166 Y164.825 E0.04214
G1 X251 Y164.825 E5.83092
G1 X251.61 Y164.865 E0.04194
G1 X252.209 Y164.984 E0.04189
G1 X252.788 Y165.181 E0.04195
G1 X253.336 Y165.451 E0.04191
G1 X253.845 Y165.79 E0.04195
G1 X254.304 Y166.193 E0.0419
G1 X254.708 Y166.652 E0.04195
G1 X255.048 Y167.16 E0.04193
G1 X255.318 Y167.709 E0.04197
G1 X255.515 Y168.287 E0.04189
G1 X255.635 Y168.887 E0.04197
G1 X255.675 Y169.5 E0.04214
G1 X255.675 Y247.5 E5.35072
G1 X255.635 Y248.11 E0.04194
G1 X255.516 Y248.709 E0.04189
G1 X255.319 Y249.288 E0.04195
G1 X255.049 Y249.836 E0.04191
G1 X254.71 Y250.345 E0.04195
G1 X254.307 Y250.804 E0.0419
G1 X253.848 Y251.208 E0.04195
G1 X253.34 Y251.548 E0.04193
G1 X252.791 Y251.818 E0.04197
G1 X252.213 Y252.015 E0.04189
G1 X251.613 Y252.135 E0.04197
G1 X251 Y252.175 E0.04214
G1 X166 Y252.175 E5.83092
G1 X165.39 Y252.135 E0.04194
G1 X164.791 Y252.016 E0.04189
G1 X164.212 Y251.819 E0.04195
G1 X163.664 Y251.549 E0.04191
G1 X163.155 Y251.21 E0.04195
G1 X162.696 Y250.807 E0.0419
G1 X162.292 Y250.348 E0.04195
G1 X161.952 Y249.84 E0.04193
G1 X161.682 Y249.291 E0.04197
G1 X161.485 Y248.713 E0.04189
G1 X161.365 Y248.113 E0.04197
G1 X161.325 Y247.5 E0.04214
G1 X161.325 Y169.5 E5.35072
G1 X161.365 Y168.89 E0.04194
G1 X161.484 Y168.291 E0.04189
G1 X161.681 Y167.712 E0.04195
G1 X161.951 Y167.164 E0.04191
G1 X162.29 Y166.655 E0.04195
G1 X162.693 Y166.196 E0.0419
G0 F3600 X163.234 Y166.44
G1 F1800 X163.685 Y166.086 E0.03933
G1 X164.182 Y165.797 E0.03944
G1 X164.713 Y165.581 E0.03932
G1 X165.27 Y165.44 E0.03941
G1 X166 Y165.375 E0.05028
G1 X251 Y165.375 E5.83092
G1 X251.573 Y165.415 E0.0394
G1 X252.134 Y165.534 E0.03934
G1 X252.674 Y165.73 E0.03941
G1 X253.181 Y165.999 E0.03937
G1 X253.646 Y166.336 E0.03939
G1 X254.06 Y166.734 E0.0394
G1 X254.414 Y167.185 E0.03933
G1 X254.703 Y167.682 E0.03944
G1 X254.919 Y168.213 E0.03932
G1 X255.06 Y168.77 E0.03941
G1 X255.125 Y169.5 E0.05028
G1 X255.125 Y247.5 E5.35072
G1 X255.085 Y248.073 E0.0394
G1 X254.966 Y248.634 E0.03934
G1 X254.77 Y249.174 E0.03941
G1 X254.501 Y249.681 E0.03937
G1 X254.164 Y250.146 E0.03939
G1 X253.766 Y250.56 E0.0394
G1 X253.315 Y250.914 E0.03933
G1 X252.818 Y251.203 E0.03944
G1 X252.287 Y251.419 E0.03932
G1 X251.73 Y251.56 E0.03941
G1 X251 Y251.625 E0.05028
G1 X166 Y251.625 E5.83092
G1 X165.427 Y251.585 E0.0394
G1 X164.866 Y251.466 E0.03934
G1 X164.326 Y251.27 E0.03941
G1 X163.819 Y251.001 E0.03937
G1 X163.354 Y250.664 E0.03939
G1 X162.94 Y250.266 E0.0394
G1 X162.586 Y249.815 E0.03933
G1 X162.297 Y249.318 E0.03944
G1 X162.081 Y248.787 E0.03932
G1 X161.94 Y248.23 E0.03941
G1 X161.875 Y247.5 E0.05028
G1 X161.875 Y169.5 E5.35072
G1 X161.915 Y168.927 E0.0394
G1 X162.034 Y168.366 E0.03934
G1 X162.23 Y167.826 E0.03941
G1 X162.499 Y167.319 E0.03937
G1 X162.836 Y166.854 E0.03939
G1 X163.234 Y166.44 E0.0394
G0 F3600 X163.38 Y167.068
G1 F1800 X163.771 Y166.705 E0.0366
G1 X164.213 Y166.404 E0.03668
G1 X164.695 Y166.172 E0.0367
G1 X165.205 Y166.014 E0.03663
G1 X166 Y165.925 E0.05488
G1 X251 Y165.925 E5.83092
G1 X251.533 Y165.965 E0.03667
G1 X252.054 Y166.084 E0.03666
G1 X252.551 Y166.279 E0.03662
G1 X253.014 Y166.546 E0.03666
G1 X253.432 Y166.88 E0.0367
G1 X253.795 Y167.271 E0.0366
G1 X254.096 Y167.713 E0.03668
G1 X254.328 Y168.195 E0.0367
G1 X254.486 Y168.705 E0.03663
G1 X254.575 Y169.5 E0.05488
G1 X254.575 Y247.5 E5.35072
G1 X254.535 Y248.033 E0.03667
G1 X254.416 Y248.554 E0.03666
G1 X254.221 Y249.051 E0.03662
G1 X253.954 Y249.514 E0.03666
G1 X253.62 Y249.932 E0.0367
G1 X253.229 Y250.295 E0.0366
G1 X252.787 Y250.596 E0.03668
G1 X252.305 Y250.828 E0.0367
G1 X251.795 Y250.986 E0.03663
G1 X251 Y251.075 E0.05488
G1 X166 Y251.075 E5.83092
G1 X165.467 Y251.035 E0.03667
G1 X164.946 Y250.916 E0.03666
G1 X164.449 Y250.721 E0.03662
G1 X163.986 Y250.454 E0.03666
G1 X163.568 Y250.12 E0.0367
G1 X163.205 Y249.729 E0.0366
G1 X162.904 Y249.287 E0.03668
G1 X162.672 Y248.805 E0.0367
G1 X162.514 Y248.295 E0.03663
G1 X162.425 Y247.5 E0.05488
G1 X162.425 Y169.5 E5.35072
G1 X162.465 Y168.967 E0.03667
G1 X162.584 Y168.446 E0.03666
G1 X162.779 Y167.949 E0.03662
G1 X163.046 Y167.486 E0.03666
G1 X163.38 Y167.068 E0.0367
G0 F3600 X163.922 Y167.302
G1 F1800 X164.305 Y166.994 E0.03372
G1 X164.733 Y166.753 E0.03369
G1 X165.195 Y166.584 E0.03375
G1 X165.678 Y166.492 E0.03373
G1 X166 Y166.475 E0.02212
G1 X251 Y166.475 E5.83092
G1 X251.49 Y166.515 E0.03373
G1 X251.967 Y166.634 E0.03372
G1 X252.418 Y166.828 E0.03368
